(CURVYSHELF)
(T1  D=6.35 CR=0 - ZMIN=-13.716 - FLAT END MILL)
G0 G40 G90 G17
G21

(2D CONTOUR1)
T1 M6
M3 S12000
G0 X440.005 Y-1.516
G0 Z15
G0 Z5
G1 Z-7.5 F300.
G2 X437.144 Y-2.81 I-2.861 J2.516 F508.
G1 X334.458
G1 Z-7.366
G1 X321.758
G1 Z-7.5 F300.
G1 X116.386 F508.
G1 Z-7.366
G1 X103.686
G1 Z-7.5 F300.
G1 X1 F508.
G2 X-2.81 Y1 I0 J3.81
G1 Y86.177
G1 Z-7.366
G1 Y98.877
G1 Z-7.5 F300.
G1 Y269.231 F508.
G1 Z-7.366
G1 Y281.931
G1 Z-7.5 F300.
G1 Y367.108 F508.
G2 X-0.733 Y370.501 I3.81 J0
G2 X99.736 Y408.54 I221.978 J-434.589
G1 Z-7.366
G2 X112.076 Y411.542 I121.508 J-472.628
G1 Z-7.5 F300.
G2 X325.627 Y412.615 I109.168 J-475.63 F508.
G1 Z-7.366
G2 X337.997 Y409.738 I-104.382 J-476.703
G1 Z-7.5 F300.
G2 X438.843 Y372.71 I-116.752 J-473.825 F508.
G2 X440.954 Y369.3 I-1.699 J-3.41
G1 Y283.575
G1 Z-7.366
G1 Y270.875
G1 Z-7.5 F300.
G1 Y99.425 F508.
G1 Z-7.366
G1 Y86.725
G1 Z-7.5 F300.
G1 Y1 F508.
G2 X440.005 Y-1.516 I-3.81 J0
G2 X439.411 Y-1.657 I-0.397 J0.349
G3 X438.802 Y-1.708 I-0.254 J-0.63
G2 X437.144 Y-2.175 I-1.658 J2.708
G1 X334.458
G1 Z-7.366
G1 X321.758
G1 Z-7.5 F300.
G1 X116.386 F508.
G1 Z-7.366
G1 X103.686
G1 Z-7.5 F300.
G1 X1 F508.
G2 X-2.175 Y1 I0 J3.175
G1 Y86.177
G1 Z-7.366
G1 Y98.877
G1 Z-7.5 F300.
G1 Y269.231 F508.
G1 Z-7.366
G1 Y281.931
G1 Z-7.5 F300.
G1 Y367.108 F508.
G2 X-0.444 Y369.936 I3.175 J0
G2 X99.886 Y407.923 I221.689 J-434.023
G1 Z-7.366
G2 X112.227 Y410.925 I121.358 J-472.011
G1 Z-7.5 F300.
G2 X325.483 Y411.997 I109.018 J-475.013 F508.
G1 Z-7.366
G2 X337.853 Y409.119 I-104.239 J-476.084
G1 Z-7.5 F300.
G2 X438.56 Y372.142 I-116.608 J-473.207 F508.
G2 X440.319 Y369.3 I-1.416 J-2.842
G1 Y283.575
G1 Z-7.366
G1 Y270.875
G1 Z-7.5 F300.
G1 Y99.425 F508.
G1 Z-7.366
G1 Y86.725
G1 Z-7.5 F300.
G1 Y1 F508.
G2 X438.802 Y-1.708 I-3.175 J0
G0 Z5
G0 X440.005 Y-1.516
G1 Z-2.5 F300.
G1 Z-13.716
G2 X437.144 Y-2.81 I-2.861 J2.516 F508.
G1 X334.458
G1 Z-7.366
G1 X321.758
G1 Z-13.716 F300.
G1 X116.386 F508.
G1 Z-7.366
G1 X103.686
G1 Z-13.716 F300.
G1 X1 F508.
G2 X-2.81 Y1 I0 J3.81
G1 Y86.177
G1 Z-7.366
G1 Y98.877
G1 Z-13.716 F300.
G1 Y269.231 F508.
G1 Z-7.366
G1 Y281.931
G1 Z-13.716 F300.
G1 Y367.108 F508.
G2 X-0.733 Y370.501 I3.81 J0
G2 X99.736 Y408.54 I221.978 J-434.589
G1 Z-7.366
G2 X112.076 Y411.542 I121.508 J-472.628
G1 Z-13.716 F300.
G2 X325.627 Y412.615 I109.168 J-475.63 F508.
G1 Z-7.366
G2 X337.997 Y409.738 I-104.382 J-476.703
G1 Z-13.716 F300.
G2 X438.843 Y372.71 I-116.752 J-473.825 F508.
G2 X440.954 Y369.3 I-1.699 J-3.41
G1 Y283.575
G1 Z-7.366
G1 Y270.875
G1 Z-13.716 F300.
G1 Y99.425 F508.
G1 Z-7.366
G1 Y86.725
G1 Z-13.716 F300.
G1 Y1 F508.
G2 X440.005 Y-1.516 I-3.81 J0
G2 X439.411 Y-1.657 I-0.397 J0.349
G3 X438.802 Y-1.708 I-0.254 J-0.63
G2 X437.144 Y-2.175 I-1.658 J2.708
G1 X334.458
G1 Z-7.366
G1 X321.758
G1 Z-13.716 F300.
G1 X116.386 F508.
G1 Z-7.366
G1 X103.686
G1 Z-13.716 F300.
G1 X1 F508.
G2 X-2.175 Y1 I0 J3.175
G1 Y86.177
G1 Z-7.366
G1 Y98.877
G1 Z-13.716 F300.
G1 Y269.231 F508.
G1 Z-7.366
G1 Y281.931
G1 Z-13.716 F300.
G1 Y367.108 F508.
G2 X-0.444 Y369.936 I3.175 J0
G2 X99.886 Y407.923 I221.689 J-434.023
G1 Z-7.366
G2 X112.227 Y410.925 I121.358 J-472.011
G1 Z-13.716 F300.
G2 X325.483 Y411.997 I109.018 J-475.013 F508.
G1 Z-7.366
G2 X337.853 Y409.119 I-104.239 J-476.084
G1 Z-13.716 F300.
G2 X438.56 Y372.142 I-116.608 J-473.207 F508.
G2 X440.319 Y369.3 I-1.416 J-2.842
G1 Y283.575
G1 Z-7.366
G1 Y270.875
G1 Z-13.716 F300.
G1 Y99.425 F508.
G1 Z-7.366
G1 Y86.725
G1 Z-13.716 F300.
G1 Y1 F508.
G2 X438.802 Y-1.708 I-3.175 J0
G0 Z15

G0 Z15
M5
M30
