(SHELFSIDE-5-23-18)
(T2  D=6.35 CR=0 - ZMIN=-13.716 - FLAT END MILL)
G0 G40 G90 G17
G21

(2D CONTOUR2)
T2 M6
M3 S10000
G0 X26.748 Y15.641
G0 Z15
G0 Z8.112
G1 Z-7.112 F508.
G1 X33.405 Y3.989
G2 Y-5.462 I-8.27 J-4.725
G1 X-17.13 Y-93.897
G2 X-30.126 Y-97.441 I-8.27 J4.726
G2 X-34.925 Y-89.171 I4.726 J8.27
G1 Y87.708
G2 X-25.4 Y97.233 I9.525 J0
G2 X-17.13 Y92.434 I0 J-9.525
G1 X26.748 Y15.641
G1 Z-13.716
G1 X33.405 Y3.989
G2 Y-5.462 I-8.27 J-4.725
G1 X11.288 Y-44.166
G1 Z-10.541
G1 X4.987 Y-55.193
G1 Z-13.716
G1 X-17.13 Y-93.897
G2 X-30.126 Y-97.441 I-8.27 J4.726
G2 X-34.925 Y-89.171 I4.726 J8.27
G1 Y-51.301
G1 Z-10.541
G1 Y-38.601
G1 Z-13.716
G1 Y37.139
G1 Z-10.541
G1 Y49.839
G1 Z-13.716
G1 Y87.708
G2 X-25.4 Y97.233 I9.525 J0
G2 X-17.13 Y92.434 I0 J-9.525
G1 X4.988 Y53.725
G1 Z-10.541
G1 X11.288 Y42.698
G1 Z-13.716
G1 X26.748 Y15.641
G0 Z8.112
G0 X161.925 Y0.007
G1 Z-7.112 F508.
G1 Y-85.523
G2 X152.4 Y-95.048 I-9.525 J0
G2 X144.13 Y-90.249 I0 J9.525
G1 X95.26 Y-4.718
G2 Y4.733 I8.27 J4.725
G1 X144.13 Y90.254
G2 X157.126 Y93.798 I8.27 J-4.726
G2 X161.925 Y85.528 I-4.726 J-8.27
G1 Y0.007
G1 Z-13.716
G1 Y-36.41
G1 Z-10.541
G1 Y-49.111
G1 Z-13.716
G1 Y-85.523
G2 X152.4 Y-95.048 I-9.525 J0
G2 X144.13 Y-90.249 I0 J9.525
G1 X122.845 Y-52.997
G1 Z-10.541
G1 X116.544 Y-41.97
G1 Z-13.716
G1 X95.26 Y-4.718
G2 Y4.733 I8.27 J4.725
G1 X116.544 Y41.98
G1 Z-10.541
G1 X122.845 Y53.007
G1 Z-13.716
G1 X144.13 Y90.254
G2 X157.126 Y93.798 I8.27 J-4.726
G2 X161.925 Y85.528 I-4.726 J-8.27
G1 Y49.115
G1 Z-10.541
G1 Y36.415
G1 Z-13.716
G1 Y0.007
G0 Z8.112
G0 X302.016 Y31.486
G1 Z-7.112 F508.
G1 X316.864 Y14.749
G2 Y-14.749 I-16.627 J-14.749
G1 X257.926 Y-81.189
G2 X226.551 Y-83.066 I-16.626 J14.749
G2 X219.075 Y-66.44 I14.749 J16.626
G1 Y66.441
G2 X241.3 Y88.666 I22.225 J0
G2 X257.926 Y81.19 I0 J-22.225
G1 X302.016 Y31.486
G1 Z-13.716
G1 X316.864 Y14.749
G2 Y-14.749 I-16.627 J-14.749
G1 X291.609 Y-43.219
G1 Z-10.541
G1 X283.181 Y-52.719
G1 Z-13.716
G1 X257.926 Y-81.189
G2 X226.551 Y-83.066 I-16.626 J14.749
G2 X219.075 Y-66.44 I14.749 J16.626
G1 Y-6.35
G1 Z-10.541
G1 Y6.35
G1 Z-13.716
G1 Y66.441
G2 X241.3 Y88.666 I22.225 J0
G2 X257.926 Y81.19 I0 J-22.225
G1 X283.181 Y52.719
G1 Z-10.541
G1 X291.609 Y43.219
G1 Z-13.716
G1 X302.016 Y31.486
G0 Z8.112
G0 X430.04 Y64.621
G1 Z-7.112 F508.
G1 X424.702 Y54.447
G2 X374.984 Y38.946 I-32.61 J17.108
G2 X364.544 Y47.118 I17.108 J32.61
G1 X314.294 Y103.765
G2 X315.635 Y126.176 I11.876 J10.535
G2 X326.17 Y130.175 I10.535 J-11.876
G1 X438.176
G2 X454.051 Y114.3 I0 J-15.875
G2 X452.234 Y106.925 I-15.875 J0
G1 X430.04 Y64.621
G1 Z-13.716
G1 X424.702 Y54.447
G2 X402.783 Y36.316 I-32.61 J17.108
G1 Z-10.541
G2 X390.176 Y34.78 I-10.69 J35.239
G1 Z-13.716
G2 X364.544 Y47.118 I1.917 J36.775
G1 X314.294 Y103.765
G2 X315.635 Y126.176 I11.876 J10.535
G2 X326.17 Y130.175 I10.535 J-11.876
G1 X375.823
G1 Z-10.541
G1 X388.523
G1 Z-13.716
G1 X438.176
G2 X454.051 Y114.3 I0 J-15.875
G2 X452.234 Y106.925 I-15.875 J0
G1 X430.04 Y64.621
G0 Z8.112
G0 Y-64.621
G1 Z-7.112 F508.
G1 X452.234 Y-106.925
G2 X445.551 Y-128.358 I-14.058 J-7.375
G2 X438.176 Y-130.175 I-7.375 J14.058
G1 X326.17
G2 X310.295 Y-114.3 I0 J15.875
G2 X314.294 Y-103.765 I15.875 J0
G1 X364.544 Y-47.118
G2 X416.53 Y-44.007 I27.548 J-24.437
G2 X424.702 Y-54.447 I-24.437 J-27.548
G1 X430.04 Y-64.621
G1 Z-13.716
G1 X452.234 Y-106.925
G2 X445.551 Y-128.358 I-14.058 J-7.375
G2 X438.176 Y-130.175 I-7.375 J14.058
G1 X388.523
G1 Z-10.541
G1 X375.823
G1 Z-13.716
G1 X326.17
G2 X310.295 Y-114.3 I0 J15.875
G2 X314.294 Y-103.765 I15.875 J0
G1 X364.544 Y-47.118
G2 X390.176 Y-34.78 I27.548 J-24.437
G1 Z-10.541
G2 X402.783 Y-36.316 I1.917 J-36.775
G1 Z-13.716
G2 X424.702 Y-54.447 I-10.69 J-35.239
G1 X430.04 Y-64.621
G0 Z8.112
G0 X-92.075 Y0.688
G1 Z-7.112 F508.
G1 Y-84.46
G2 X-101.6 Y-93.985 I-9.525 J0
G2 X-109.866 Y-89.193 I0 J9.525
G1 X-158.618 Y-4.047
G2 Y5.417 I8.267 J4.733
G1 X-109.866 Y90.596
G2 X-96.868 Y94.131 I8.267 J-4.731
G2 X-92.075 Y85.864 I-4.731 J-8.267
G1 Y0.688
G1 Z-13.716
G1 Y-35.529
G1 Z-10.541
G1 Y-48.229
G1 Z-13.716
G1 Y-84.46
G2 X-101.6 Y-93.985 I-9.525 J0
G2 X-109.866 Y-89.193 I0 J9.525
G1 X-131.086 Y-52.131
G1 Z-10.541
G1 X-137.397 Y-41.109
G1 Z-13.716
G1 X-158.618 Y-4.047
G2 Y5.417 I8.267 J4.733
G1 X-137.397 Y42.495
G1 Z-10.541
G1 X-131.088 Y53.518
G1 Z-13.716
G1 X-109.866 Y90.596
G2 X-96.868 Y94.131 I8.267 J-4.731
G2 X-92.075 Y85.864 I-4.731 J-8.267
G1 Y49.633
G1 Z-10.541
G1 Y36.933
G1 Z-13.716
G1 Y0.688
G0 Z8.112
G0 X-227.886 Y-17.958
G1 Z-7.112 F508.
G1 X-271.134 Y-93.519
G2 X-284.132 Y-97.054 I-8.267 J4.731
G2 X-288.925 Y-88.788 I4.731 J8.267
G1 Y85.307
G2 X-279.4 Y94.832 I9.525 J0
G2 X-271.134 Y90.04 I0 J-9.525
G1 X-221.303 Y3.009
G2 Y-6.455 I-8.267 J-4.733
G1 X-227.886 Y-17.958
G1 Z-13.716
G1 X-243.064 Y-44.476
G1 Z-10.541
G1 X-249.372 Y-55.498
G1 Z-13.716
G1 X-271.134 Y-93.519
G2 X-284.132 Y-97.054 I-8.267 J4.731
G2 X-288.925 Y-88.788 I4.731 J8.267
G1 Y-51.614
G1 Z-10.541
G1 Y-38.914
G1 Z-13.716
G1 Y35.433
G1 Z-10.541
G1 Y48.133
G1 Z-13.716
G1 Y85.307
G2 X-279.4 Y94.832 I9.525 J0
G2 X-271.134 Y90.04 I0 J-9.525
G1 X-249.374 Y52.035
G1 Z-10.541
G1 X-243.063 Y41.014
G1 Z-13.716
G1 X-221.303 Y3.009
G2 Y-6.455 I-8.267 J-4.733
G1 X-227.886 Y-17.958
G0 Z8.112
G0 X-346.075 Y-2.707
G1 Z-7.112 F508.
G1 Y-87.548
G2 X-355.6 Y-97.073 I-9.525 J0
G2 X-363.765 Y-92.453 I0 J9.525
G1 X-414.565 Y-7.892
G2 X-414.664 Y1.75 I8.165 J4.905
G1 X-363.864 Y90.386
G2 X-350.864 Y93.914 I8.264 J-4.736
G2 X-346.075 Y85.65 I-4.736 J-8.264
G1 Y-2.707
G1 Z-13.716
G1 Y-37.898
G1 Z-10.541
G1 Y-50.598
G1 Z-13.716
G1 Y-87.548
G2 X-355.6 Y-97.073 I-9.525 J0
G2 X-363.765 Y-92.453 I0 J9.525
G1 X-385.895 Y-55.616
G1 Z-10.541
G1 X-392.435 Y-44.729
G1 Z-13.716
G1 X-414.565 Y-7.892
G2 X-414.664 Y1.75 I8.165 J4.905
G1 X-392.422 Y40.559
G1 Z-10.541
G1 X-386.107 Y51.577
G1 Z-13.716
G1 X-363.864 Y90.386
G2 X-350.864 Y93.914 I8.264 J-4.736
G2 X-346.075 Y85.65 I-4.736 J-8.264
G1 Y48.701
G1 Z-10.541
G1 Y36.001
G1 Z-13.716
G1 Y-2.707
G0 Z8.112
G0 X-475.548 Y8.492
G1 Z-7.112 F508.
G1 X-473.646 Y3.247
G2 Y-3.247 I-8.954 J-3.247
G1 X-505.396 Y-90.795
G2 X-517.597 Y-96.502 I-8.954 J3.247
G2 X-523.875 Y-87.548 I3.247 J8.954
G1 Y87.548
G2 X-514.35 Y97.073 I9.525 J0
G2 X-505.396 Y90.795 I0 J-9.525
G1 X-475.548 Y8.492
G1 Z-13.716
G1 X-473.646 Y3.247
G2 Y-3.247 I-8.954 J-3.247
G1 X-487.356 Y-41.052
G1 Z-10.541
G1 X-491.686 Y-52.991
G1 Z-13.716
G1 X-505.396 Y-90.795
G2 X-517.597 Y-96.502 I-8.954 J3.247
G2 X-523.875 Y-87.548 I3.247 J8.954
G1 Y-50.124
G1 Z-10.541
G1 Y-37.424
G1 Z-13.716
G1 Y37.424
G1 Z-10.541
G1 Y50.124
G1 Z-13.716
G1 Y87.548
G2 X-514.35 Y97.073 I9.525 J0
G2 X-505.396 Y90.795 I0 J-9.525
G1 X-491.686 Y52.991
G1 Z-10.541
G1 X-487.356 Y41.052
G1 Z-13.716
G1 X-475.548 Y8.492
G0 Z15

(2D CONTOUR5)
G0 X90.419 Y97.512
G0 Z10
G0 Z8
G1 Z-7 F508.
G1 X79.733 Y78.813
G2 X66.738 Y75.268 I-8.27 J4.726
G2 X63.193 Y78.813 I4.726 J8.27
G1 X41.987 Y115.924
G2 X45.531 Y128.92 I8.27 J4.726
G2 X50.257 Y130.175 I4.726 J-8.27
G1 X92.67
G2 X102.195 Y120.65 I0 J-9.525
G2 X100.94 Y115.924 I-9.525 J0
G1 X90.419 Y97.512
G1 Z-10.541
G1 X87.186 Y91.855
G1 Z-13.716
G1 X79.733 Y78.813
G2 X66.738 Y75.268 I-8.27 J4.726
G2 X63.193 Y78.813 I4.726 J8.27
G1 X55.74 Y91.855
G1 Z-10.541
G1 X49.439 Y102.882
G1 Z-13.716
G1 X41.987 Y115.924
G2 X45.531 Y128.92 I8.27 J4.726
G2 X50.257 Y130.175 I4.726 J-8.27
G1 X65.113
G1 Z-10.541
G1 X77.813
G1 Z-13.716
G1 X92.67
G2 X102.195 Y120.65 I0 J-9.525
G2 X100.94 Y115.924 I-9.525 J0
G1 X93.487 Y102.882
G1 Z-10.541
G1 X90.419 Y97.512
G0 Z8
G0 Y-97.512
G1 Z-7 F508.
G1 X100.94 Y-115.924
G2 X97.396 Y-128.92 I-8.27 J-4.726
G2 X92.67 Y-130.175 I-4.726 J8.27
G1 X50.257
G2 X40.732 Y-120.65 I0 J9.525
G2 X41.987 Y-115.924 I9.525 J0
G1 X63.193 Y-78.813
G2 X76.189 Y-75.268 I8.27 J-4.726
G2 X79.733 Y-78.813 I-4.726 J-8.27
G1 X90.419 Y-97.512
G1 Z-10.541
G1 X93.487 Y-102.882
G1 Z-13.716
G1 X100.94 Y-115.924
G2 X97.396 Y-128.92 I-8.27 J-4.726
G2 X92.67 Y-130.175 I-4.726 J8.27
G1 X77.813
G1 Z-10.541
G1 X65.113
G1 Z-13.716
G1 X50.257
G2 X40.732 Y-120.65 I0 J9.525
G2 X41.987 Y-115.924 I9.525 J0
G1 X49.439 Y-102.882
G1 Z-10.541
G1 X55.74 Y-91.855
G1 Z-13.716
G1 X63.193 Y-78.813
G2 X76.189 Y-75.268 I8.27 J-4.726
G2 X79.733 Y-78.813 I-4.726 J-8.27
G1 X87.186 Y-91.855
G1 Z-10.541
G1 X90.419 Y-97.512
G0 Z8
G0 X-174.717 Y-96.361
G1 Z-7 F508.
G1 X-164.196 Y-114.773
G2 X-167.74 Y-127.769 I-8.27 J-4.726
G2 X-172.466 Y-129.024 I-4.726 J8.27
G1 X-214.879
G2 X-224.404 Y-119.499 I0 J9.525
G2 X-223.148 Y-114.773 I9.525 J0
G1 X-201.942 Y-77.662
G2 X-188.946 Y-74.117 I8.27 J-4.726
G2 X-185.402 Y-77.662 I-4.726 J-8.27
G1 X-174.717 Y-96.361
G1 Z-10.541
G1 X-171.648 Y-101.731
G1 Z-13.716
G1 X-164.196 Y-114.773
G2 X-167.74 Y-127.769 I-8.27 J-4.726
G2 X-172.466 Y-129.024 I-4.726 J8.27
G1 X-187.322
G1 Z-10.541
G1 X-200.022
G1 Z-13.716
G1 X-214.879
G2 X-224.404 Y-119.499 I0 J9.525
G2 X-223.148 Y-114.773 I9.525 J0
G1 X-215.696 Y-101.731
G1 Z-10.541
G1 X-209.395 Y-90.704
G1 Z-13.716
G1 X-201.942 Y-77.662
G2 X-188.946 Y-74.117 I8.27 J-4.726
G2 X-185.402 Y-77.662 I-4.726 J-8.27
G1 X-177.949 Y-90.704
G1 Z-10.541
G1 X-174.717 Y-96.361
G0 Z8
G0 X-171.737 Y97.546
G1 Z-7 F508.
G1 X-182.389 Y78.937
G2 X-195.386 Y75.402 I-8.266 J4.731
G2 X-198.921 Y78.935 I4.731 J8.266
G1 X-220.096 Y115.918
G2 X-216.562 Y128.916 I8.266 J4.733
G2 X-211.83 Y130.175 I4.733 J-8.266
G1 X-169.489
G2 X-159.963 Y120.65 I0 J-9.525
G2 X-161.222 Y115.918 I-9.525 J0
G1 X-171.737 Y97.546
G1 Z-10.541
G1 X-174.96 Y91.916
G1 Z-13.716
G1 X-182.389 Y78.937
G2 X-195.386 Y75.402 I-8.266 J4.731
G2 X-198.921 Y78.935 I4.731 J8.266
G1 X-206.353 Y91.916
G1 Z-10.541
G1 X-212.663 Y102.937
G1 Z-13.716
G1 X-220.096 Y115.918
G2 X-216.562 Y128.916 I8.266 J4.733
G2 X-211.83 Y130.175 I4.733 J-8.266
G1 X-197.009
G1 Z-10.541
G1 X-184.309
G1 Z-13.716
G1 X-169.489
G2 X-159.963 Y120.65 I0 J-9.525
G2 X-161.222 Y115.918 I-9.525 J0
G1 X-168.651 Y102.938
G1 Z-10.541
G1 X-171.737 Y97.546
G0 Z8
G0 X523.875 Y0
G1 Z-7 F508.
G1 Y-56.035
G2 X508 Y-71.91 I-15.875 J0
G2 X493.943 Y-63.41 I0 J15.875
G1 X464.545 Y-7.375
G2 Y7.375 I14.057 J7.375
G1 X493.943 Y63.41
G2 X515.375 Y70.092 I14.058 J-7.375
G2 X523.875 Y56.035 I-7.375 J-14.058
G1 Y0
G1 Z-13.716
G1 Y-21.667
G1 Z-10.541
G1 Y-34.368
G1 Z-13.716
G1 Y-56.035
G2 X517.647 Y-68.642 I-15.875 J0
G1 Z-10.541
G2 X505.316 Y-71.681 I-9.647 J12.608
G1 Z-13.716
G2 X493.943 Y-63.41 I2.684 J15.646
G1 X482.194 Y-41.016
G1 Z-10.541
G1 X476.293 Y-29.77
G1 Z-13.716
G1 X464.545 Y-7.375
G2 Y7.375 I14.057 J7.375
G1 X476.293 Y29.77
G1 Z-10.541
G1 X482.194 Y41.016
G1 Z-13.716
G1 X493.943 Y63.41
G2 X505.316 Y71.681 I14.058 J-7.375
G1 Z-10.541
G2 X517.647 Y68.642 I2.684 J-15.646
G1 Z-13.716
G2 X523.875 Y56.035 I-9.647 J-12.608
G1 Y34.368
G1 Z-10.541
G1 Y21.667
G1 Z-13.716
G1 Y0
G0 Z10

(2D POCKET2)
G0 Z15
G0 X-578.399 Y195.247
G0 Z10
G1 Z-2.365 F508.
G1 Y195.239 Z-2.464
G1 Y195.216 Z-2.561
G1 Y195.178 Z-2.653
G1 Y195.126 Z-2.738
G1 Y195.061 Z-2.814
G1 Y194.986 Z-2.879
G1 Y194.901 Z-2.931
G1 Y194.808 Z-2.969
G1 Y194.712 Z-2.992
G1 Y194.612 Z-3
G1 Y187.11
G1 Y-187.113
G1 Y-187.138
G1 Y-187.237 Z-2.992
G1 Y-187.334 Z-2.969
G1 Y-187.426 Z-2.931
G1 Y-187.511 Z-2.879
G1 Y-187.587 Z-2.814
G1 Y-187.652 Z-2.738
G1 Y-187.704 Z-2.653
G1 Y-187.742 Z-2.561
G1 Y-187.765 Z-2.464
G1 Y-187.773 Z-2.365
G0 Z10
G0 X-573.236 Y195.339
G1 Z-2.365 F508.
G1 Y195.331 Z-2.464
G1 Y195.308 Z-2.561
G1 Y195.27 Z-2.653
G1 Y195.218 Z-2.738
G1 Y195.153 Z-2.814
G1 Y195.077 Z-2.879
G1 Y194.992 Z-2.931
G1 Y194.9 Z-2.969
G1 Y194.803 Z-2.992
G1 Y194.704 Z-3
G1 X-573.237 Y187.218
G1 X-573.26 Y-184.15
G1 X-573.259 Y-187.213
G1 Y-190.388
G1 Y-190.488 Z-2.992
G1 Y-190.585 Z-2.969
G1 Y-190.677 Z-2.931
G1 Y-190.762 Z-2.879
G1 Y-190.837 Z-2.814
G1 Y-190.902 Z-2.738
G1 Y-190.954 Z-2.653
G1 Y-190.992 Z-2.561
G1 Y-191.016 Z-2.464
G1 Y-191.023 Z-2.365
G0 Z10
G0 X-569.303 Y195.338
G1 Z-2.428 F508.
G1 X-569.302 Y195.331 Z-2.518
G1 X-569.299 Y195.31 Z-2.605
G1 X-569.293 Y195.276 Z-2.688
G1 X-569.286 Y195.23 Z-2.764
G1 X-569.277 Y195.172 Z-2.833
G1 X-569.266 Y195.105 Z-2.891
G1 X-569.254 Y195.03 Z-2.938
G1 X-569.241 Y194.948 Z-2.972
G1 X-569.228 Y194.862 Z-2.993
G1 X-569.214 Y194.773 Z-3
G1 X-568.033 Y187.317
G1 X-568.025 Y187.217
G1 Y-184.15
G1 Y-187.213
G1 X-568.033 Y-187.313
G1 X-568.529 Y-190.449
G1 X-568.545 Y-190.547 Z-2.992
G1 X-568.56 Y-190.643 Z-2.969
G1 X-568.575 Y-190.733 Z-2.931
G1 X-568.588 Y-190.817 Z-2.879
G1 X-568.6 Y-190.892 Z-2.814
G1 X-568.61 Y-190.956 Z-2.738
G1 X-568.618 Y-191.008 Z-2.653
G1 X-568.624 Y-191.045 Z-2.561
G1 X-568.628 Y-191.068 Z-2.464
G1 X-568.629 Y-191.076 Z-2.365
G0 Z15
G0 X-443.258 Y195.344
G0 Z10
G1 Z-2.365 F508.
G1 Y195.336 Z-2.464
G1 Y195.313 Z-2.561
G1 Y195.274 Z-2.653
G1 Y195.222 Z-2.738
G1 Y195.158 Z-2.814
G1 Y195.082 Z-2.879
G1 Y194.997 Z-2.931
G1 Y194.905 Z-2.969
G1 Y194.808 Z-2.992
G1 Y194.709 Z-3
G1 Y187.222
G1 Y-187.223
G1 Y-190.398
G1 Y-190.498 Z-2.992
G1 Y-190.595 Z-2.969
G1 Y-190.687 Z-2.931
G1 Y-190.772 Z-2.879
G1 Y-190.847 Z-2.814
G1 Y-190.912 Z-2.738
G1 Y-190.964 Z-2.653
G1 Y-191.002 Z-2.561
G1 Y-191.026 Z-2.464
G1 Y-191.033 Z-2.365
G0 Z10
G0 X-442.303 Y195.338
G1 Z-2.428 F508.
G1 X-442.302 Y195.331 Z-2.518
G1 X-442.299 Y195.31 Z-2.605
G1 X-442.293 Y195.276 Z-2.688
G1 X-442.286 Y195.23 Z-2.764
G1 X-442.277 Y195.172 Z-2.833
G1 X-442.266 Y195.105 Z-2.891
G1 X-442.254 Y195.03 Z-2.938
G1 X-442.241 Y194.948 Z-2.972
G1 X-442.228 Y194.862 Z-2.993
G1 X-442.214 Y194.773 Z-3
G1 X-441.033 Y187.317
G1 X-441.025 Y187.217
G1 Y-184.15
G1 Y-187.213
G1 X-441.033 Y-187.313
G1 X-441.53 Y-190.449
G1 X-441.545 Y-190.547 Z-2.992
G1 X-441.56 Y-190.643 Z-2.969
G1 X-441.575 Y-190.733 Z-2.931
G1 X-441.588 Y-190.817 Z-2.879
G1 X-441.6 Y-190.892 Z-2.814
G1 X-441.61 Y-190.956 Z-2.738
G1 X-441.618 Y-191.008 Z-2.653
G1 X-441.624 Y-191.045 Z-2.561
G1 X-441.628 Y-191.068 Z-2.464
G1 X-441.629 Y-191.076 Z-2.365
G0 Z10
G0 X-445.442 Y-195.327
G1 Z-2.365 F508.
G1 Y-195.319 Z-2.464
G1 Y-195.296 Z-2.561
G1 Y-195.258 Z-2.653
G1 Y-195.206 Z-2.738
G1 Y-195.141 Z-2.814
G1 Y-195.066 Z-2.879
G1 Y-194.981 Z-2.931
G1 Y-194.889 Z-2.969
G1 Y-194.792 Z-2.992
G1 Y-194.692 Z-3
G1 Y-187.214
G1 Y187.219
G1 Y190.395
G1 Y190.494 Z-2.992
G1 Y190.591 Z-2.969
G1 Y190.683 Z-2.931
G1 Y190.768 Z-2.879
G1 Y190.844 Z-2.814
G1 Y190.908 Z-2.738
G1 Y190.96 Z-2.653
G1 Y190.998 Z-2.561
G1 Y191.022 Z-2.464
G1 Y191.029 Z-2.365
G0 Z10
G0 X-446.398 Y-195.33
G1 Z-2.428 F508.
G1 X-446.399 Y-195.323 Z-2.518
G1 X-446.402 Y-195.302 Z-2.605
G1 X-446.408 Y-195.268 Z-2.688
G1 X-446.415 Y-195.222 Z-2.764
G1 X-446.424 Y-195.165 Z-2.833
G1 X-446.435 Y-195.097 Z-2.891
G1 X-446.447 Y-195.022 Z-2.938
G1 X-446.46 Y-194.94 Z-2.972
G1 X-446.473 Y-194.854 Z-2.993
G1 X-446.487 Y-194.766 Z-3
G1 X-447.667 Y-187.317
G1 X-447.675 Y-187.217
G1 Y184.15
G1 Y187.213
G1 X-447.667 Y187.313
G1 X-447.171 Y190.449
G1 X-447.155 Y190.547 Z-2.992
G1 X-447.14 Y190.643 Z-2.969
G1 X-447.125 Y190.733 Z-2.931
G1 X-447.112 Y190.817 Z-2.879
G1 X-447.1 Y190.892 Z-2.814
G1 X-447.09 Y190.956 Z-2.738
G1 X-447.082 Y191.008 Z-2.653
G1 X-447.076 Y191.045 Z-2.561
G1 X-447.072 Y191.068 Z-2.464
G1 X-447.071 Y191.076 Z-2.365
G0 Z15
G0 X-316.258 Y195.344
G0 Z10
G1 Z-2.365 F508.
G1 Y195.336 Z-2.464
G1 Y195.313 Z-2.561
G1 Y195.274 Z-2.653
G1 Y195.222 Z-2.738
G1 Y195.158 Z-2.814
G1 Y195.082 Z-2.879
G1 Y194.997 Z-2.931
G1 Y194.905 Z-2.969
G1 Y194.808 Z-2.992
G1 Y194.709 Z-3
G1 Y187.222
G1 Y-187.223
G1 Y-190.398
G1 Y-190.498 Z-2.992
G1 Y-190.595 Z-2.969
G1 Y-190.687 Z-2.931
G1 Y-190.772 Z-2.879
G1 Y-190.847 Z-2.814
G1 Y-190.912 Z-2.738
G1 Y-190.964 Z-2.653
G1 Y-191.002 Z-2.561
G1 Y-191.026 Z-2.464
G1 Y-191.033 Z-2.365
G0 Z10
G0 X-315.303 Y195.338
G1 Z-2.428 F508.
G1 X-315.302 Y195.331 Z-2.518
G1 X-315.299 Y195.31 Z-2.605
G1 X-315.293 Y195.276 Z-2.688
G1 X-315.286 Y195.23 Z-2.764
G1 X-315.277 Y195.172 Z-2.833
G1 X-315.266 Y195.105 Z-2.891
G1 X-315.254 Y195.03 Z-2.938
G1 X-315.241 Y194.948 Z-2.972
G1 X-315.228 Y194.862 Z-2.993
G1 X-315.214 Y194.773 Z-3
G1 X-314.033 Y187.317
G1 X-314.025 Y187.217
G1 Y-184.15
G1 Y-187.213
G1 X-314.033 Y-187.313
G1 X-314.53 Y-190.449
G1 X-314.545 Y-190.547 Z-2.992
G1 X-314.56 Y-190.643 Z-2.969
G1 X-314.575 Y-190.733 Z-2.931
G1 X-314.588 Y-190.817 Z-2.879
G1 X-314.6 Y-190.892 Z-2.814
G1 X-314.61 Y-190.956 Z-2.738
G1 X-314.618 Y-191.008 Z-2.653
G1 X-314.624 Y-191.045 Z-2.561
G1 X-314.628 Y-191.068 Z-2.464
G1 X-314.629 Y-191.076 Z-2.365
G0 Z10
G0 X-318.442 Y-195.327
G1 Z-2.365 F508.
G1 Y-195.319 Z-2.464
G1 Y-195.296 Z-2.561
G1 Y-195.258 Z-2.653
G1 Y-195.206 Z-2.738
G1 Y-195.141 Z-2.814
G1 Y-195.066 Z-2.879
G1 Y-194.981 Z-2.931
G1 Y-194.889 Z-2.969
G1 Y-194.792 Z-2.992
G1 Y-194.692 Z-3
G1 Y-187.214
G1 Y187.219
G1 Y190.395
G1 Y190.494 Z-2.992
G1 Y190.591 Z-2.969
G1 Y190.683 Z-2.931
G1 Y190.768 Z-2.879
G1 Y190.844 Z-2.814
G1 Y190.908 Z-2.738
G1 Y190.96 Z-2.653
G1 Y190.998 Z-2.561
G1 Y191.022 Z-2.464
G1 Y191.029 Z-2.365
G0 Z10
G0 X-319.398 Y-195.33
G1 Z-2.428 F508.
G1 X-319.399 Y-195.323 Z-2.518
G1 X-319.402 Y-195.302 Z-2.605
G1 X-319.408 Y-195.268 Z-2.688
G1 X-319.415 Y-195.222 Z-2.764
G1 X-319.424 Y-195.165 Z-2.833
G1 X-319.435 Y-195.097 Z-2.891
G1 X-319.447 Y-195.022 Z-2.938
G1 X-319.46 Y-194.94 Z-2.972
G1 X-319.473 Y-194.854 Z-2.993
G1 X-319.487 Y-194.766 Z-3
G1 X-320.667 Y-187.317
G1 X-320.675 Y-187.217
G1 Y184.15
G1 Y187.213
G1 X-320.667 Y187.313
G1 X-320.171 Y190.449
G1 X-320.155 Y190.547 Z-2.992
G1 X-320.14 Y190.643 Z-2.969
G1 X-320.125 Y190.733 Z-2.931
G1 X-320.112 Y190.817 Z-2.879
G1 X-320.1 Y190.892 Z-2.814
G1 X-320.09 Y190.956 Z-2.738
G1 X-320.082 Y191.008 Z-2.653
G1 X-320.076 Y191.045 Z-2.561
G1 X-320.072 Y191.068 Z-2.464
G1 X-320.071 Y191.076 Z-2.365
G0 Z15
G0 X-62.258 Y195.344
G0 Z10
G1 Z-2.365 F508.
G1 Y195.336 Z-2.464
G1 Y195.313 Z-2.561
G1 Y195.274 Z-2.653
G1 Y195.222 Z-2.738
G1 Y195.158 Z-2.814
G1 Y195.082 Z-2.879
G1 Y194.997 Z-2.931
G1 Y194.905 Z-2.969
G1 Y194.808 Z-2.992
G1 Y194.709 Z-3
G1 Y187.222
G1 Y-187.223
G1 Y-190.398
G1 Y-190.498 Z-2.992
G1 Y-190.595 Z-2.969
G1 Y-190.687 Z-2.931
G1 Y-190.772 Z-2.879
G1 Y-190.847 Z-2.814
G1 Y-190.912 Z-2.738
G1 Y-190.964 Z-2.653
G1 Y-191.002 Z-2.561
G1 Y-191.026 Z-2.464
G1 Y-191.033 Z-2.365
G0 Z10
G0 X-61.303 Y195.338
G1 Z-2.428 F508.
G1 X-61.302 Y195.331 Z-2.518
G1 X-61.299 Y195.31 Z-2.605
G1 X-61.293 Y195.276 Z-2.688
G1 X-61.286 Y195.23 Z-2.764
G1 X-61.277 Y195.172 Z-2.833
G1 X-61.266 Y195.105 Z-2.891
G1 X-61.254 Y195.03 Z-2.938
G1 X-61.241 Y194.948 Z-2.972
G1 X-61.228 Y194.862 Z-2.993
G1 X-61.214 Y194.773 Z-3
G1 X-60.033 Y187.317
G1 X-60.025 Y187.217
G1 Y-184.15
G1 Y-187.213
G1 X-60.033 Y-187.313
G1 X-60.529 Y-190.449
G1 X-60.545 Y-190.547 Z-2.992
G1 X-60.56 Y-190.643 Z-2.969
G1 X-60.575 Y-190.733 Z-2.931
G1 X-60.588 Y-190.817 Z-2.879
G1 X-60.6 Y-190.892 Z-2.814
G1 X-60.61 Y-190.956 Z-2.738
G1 X-60.618 Y-191.008 Z-2.653
G1 X-60.624 Y-191.045 Z-2.561
G1 X-60.628 Y-191.068 Z-2.464
G1 X-60.629 Y-191.076 Z-2.365
G0 Z10
G0 X-64.442 Y-195.327
G1 Z-2.365 F508.
G1 Y-195.319 Z-2.464
G1 Y-195.296 Z-2.561
G1 Y-195.258 Z-2.653
G1 Y-195.206 Z-2.738
G1 Y-195.141 Z-2.814
G1 Y-195.066 Z-2.879
G1 Y-194.981 Z-2.931
G1 Y-194.889 Z-2.969
G1 Y-194.792 Z-2.992
G1 Y-194.692 Z-3
G1 Y-187.214
G1 Y187.219
G1 Y190.395
G1 Y190.494 Z-2.992
G1 Y190.591 Z-2.969
G1 Y190.683 Z-2.931
G1 Y190.768 Z-2.879
G1 Y190.844 Z-2.814
G1 Y190.908 Z-2.738
G1 Y190.96 Z-2.653
G1 Y190.998 Z-2.561
G1 Y191.022 Z-2.464
G1 Y191.029 Z-2.365
G0 Z10
G0 X-65.398 Y-195.33
G1 Z-2.428 F508.
G1 X-65.399 Y-195.323 Z-2.518
G1 X-65.402 Y-195.302 Z-2.605
G1 X-65.408 Y-195.268 Z-2.688
G1 X-65.415 Y-195.222 Z-2.764
G1 X-65.424 Y-195.165 Z-2.833
G1 X-65.435 Y-195.097 Z-2.891
G1 X-65.447 Y-195.022 Z-2.938
G1 X-65.46 Y-194.94 Z-2.972
G1 X-65.473 Y-194.854 Z-2.993
G1 X-65.487 Y-194.766 Z-3
G1 X-66.667 Y-187.317
G1 X-66.675 Y-187.217
G1 Y184.15
G1 Y187.213
G1 X-66.667 Y187.313
G1 X-66.171 Y190.449
G1 X-66.155 Y190.547 Z-2.992
G1 X-66.14 Y190.643 Z-2.969
G1 X-66.125 Y190.733 Z-2.931
G1 X-66.112 Y190.817 Z-2.879
G1 X-66.1 Y190.892 Z-2.814
G1 X-66.09 Y190.956 Z-2.738
G1 X-66.082 Y191.008 Z-2.653
G1 X-66.076 Y191.045 Z-2.561
G1 X-66.072 Y191.068 Z-2.464
G1 X-66.071 Y191.076 Z-2.365
G0 Z15
G0 X191.742 Y195.344
G0 Z10
G1 Z-2.365 F508.
G1 Y195.336 Z-2.464
G1 Y195.313 Z-2.561
G1 Y195.274 Z-2.653
G1 Y195.222 Z-2.738
G1 Y195.158 Z-2.814
G1 Y195.082 Z-2.879
G1 Y194.997 Z-2.931
G1 Y194.905 Z-2.969
G1 Y194.808 Z-2.992
G1 Y194.709 Z-3
G1 Y187.222
G1 Y-187.223
G1 Y-190.398
G1 Y-190.498 Z-2.992
G1 Y-190.595 Z-2.969
G1 Y-190.687 Z-2.931
G1 Y-190.772 Z-2.879
G1 Y-190.847 Z-2.814
G1 Y-190.912 Z-2.738
G1 Y-190.964 Z-2.653
G1 Y-191.002 Z-2.561
G1 Y-191.026 Z-2.464
G1 Y-191.033 Z-2.365
G0 Z10
G0 X192.697 Y195.338
G1 Z-2.428 F508.
G1 X192.698 Y195.331 Z-2.518
G1 X192.701 Y195.31 Z-2.605
G1 X192.707 Y195.276 Z-2.688
G1 X192.714 Y195.23 Z-2.764
G1 X192.723 Y195.172 Z-2.833
G1 X192.734 Y195.105 Z-2.891
G1 X192.746 Y195.03 Z-2.938
G1 X192.759 Y194.948 Z-2.972
G1 X192.772 Y194.862 Z-2.993
G1 X192.786 Y194.773 Z-3
G1 X193.967 Y187.317
G1 X193.975 Y187.217
G1 Y-184.15
G1 Y-187.213
G1 X193.967 Y-187.313
G1 X193.471 Y-190.449
G1 X193.455 Y-190.547 Z-2.992
G1 X193.44 Y-190.643 Z-2.969
G1 X193.425 Y-190.733 Z-2.931
G1 X193.412 Y-190.817 Z-2.879
G1 X193.4 Y-190.892 Z-2.814
G1 X193.39 Y-190.956 Z-2.738
G1 X193.382 Y-191.008 Z-2.653
G1 X193.376 Y-191.045 Z-2.561
G1 X193.372 Y-191.068 Z-2.464
G1 X193.371 Y-191.076 Z-2.365
G0 Z10
G0 X189.558 Y-195.327
G1 Z-2.365 F508.
G1 Y-195.319 Z-2.464
G1 Y-195.296 Z-2.561
G1 Y-195.258 Z-2.653
G1 Y-195.206 Z-2.738
G1 Y-195.141 Z-2.814
G1 Y-195.066 Z-2.879
G1 Y-194.981 Z-2.931
G1 Y-194.889 Z-2.969
G1 Y-194.792 Z-2.992
G1 Y-194.692 Z-3
G1 Y-187.214
G1 Y187.219
G1 Y190.395
G1 Y190.494 Z-2.992
G1 Y190.591 Z-2.969
G1 Y190.683 Z-2.931
G1 Y190.768 Z-2.879
G1 Y190.844 Z-2.814
G1 Y190.908 Z-2.738
G1 Y190.96 Z-2.653
G1 Y190.998 Z-2.561
G1 Y191.022 Z-2.464
G1 Y191.029 Z-2.365
G0 Z10
G0 X188.602 Y-195.33
G1 Z-2.428 F508.
G1 X188.601 Y-195.323 Z-2.518
G1 X188.598 Y-195.302 Z-2.605
G1 X188.592 Y-195.268 Z-2.688
G1 X188.585 Y-195.222 Z-2.764
G1 X188.576 Y-195.165 Z-2.833
G1 X188.565 Y-195.097 Z-2.891
G1 X188.553 Y-195.022 Z-2.938
G1 X188.54 Y-194.94 Z-2.972
G1 X188.527 Y-194.854 Z-2.993
G1 X188.513 Y-194.766 Z-3
G1 X187.333 Y-187.317
G1 X187.325 Y-187.217
G1 Y184.15
G1 Y187.213
G1 X187.333 Y187.313
G1 X187.829 Y190.449
G1 X187.845 Y190.547 Z-2.992
G1 X187.86 Y190.643 Z-2.969
G1 X187.875 Y190.733 Z-2.931
G1 X187.888 Y190.817 Z-2.879
G1 X187.9 Y190.892 Z-2.814
G1 X187.91 Y190.956 Z-2.738
G1 X187.918 Y191.008 Z-2.653
G1 X187.924 Y191.045 Z-2.561
G1 X187.928 Y191.068 Z-2.464
G1 X187.929 Y191.076 Z-2.365
G0 Z15
G0 X578.699 Y-195.253
G0 Z10
G1 Z-2.365 F508.
G1 Y-195.245 Z-2.464
G1 Y-195.222 Z-2.561
G1 Y-195.184 Z-2.653
G1 Y-195.132 Z-2.738
G1 Y-195.067 Z-2.814
G1 Y-194.991 Z-2.879
G1 Y-194.907 Z-2.931
G1 Y-194.814 Z-2.969
G1 Y-194.718 Z-2.992
G1 Y-194.618 Z-3
G1 Y-187.053
G1 Y187.047
G1 Y187.072
G1 Y187.171 Z-2.992
G1 Y187.268 Z-2.969
G1 Y187.36 Z-2.931
G1 Y187.445 Z-2.879
G1 Y187.521 Z-2.814
G1 Y187.586 Z-2.738
G1 Y187.638 Z-2.653
G1 Y187.676 Z-2.561
G1 Y187.699 Z-2.464
G1 Y187.707 Z-2.365
G0 Z10
G0 X573.515 Y-195.328
G1 Z-2.365 F508.
G1 Y-195.32 Z-2.464
G1 Y-195.296 Z-2.561
G1 Y-195.258 Z-2.653
G1 Y-195.206 Z-2.738
G1 Y-195.142 Z-2.814
G1 Y-195.066 Z-2.879
G1 Y-194.981 Z-2.931
G1 Y-194.889 Z-2.969
G1 Y-194.792 Z-2.992
G1 Y-194.693 Z-3
G1 Y-187.222
G1 Y187.224
G1 Y190.399
G1 Y190.498 Z-2.992
G1 Y190.595 Z-2.969
G1 Y190.687 Z-2.931
G1 Y190.772 Z-2.879
G1 Y190.848 Z-2.814
G1 Y190.912 Z-2.738
G1 Y190.964 Z-2.653
G1 Y191.003 Z-2.561
G1 Y191.026 Z-2.464
G1 Y191.034 Z-2.365
G0 Z10
G0 X569.602 Y-195.33
G1 Z-2.428 F508.
G1 X569.601 Y-195.323 Z-2.518
G1 X569.598 Y-195.303 Z-2.605
G1 X569.592 Y-195.269 Z-2.688
G1 X569.585 Y-195.223 Z-2.764
G1 X569.576 Y-195.165 Z-2.833
G1 X569.565 Y-195.098 Z-2.891
G1 X569.553 Y-195.022 Z-2.938
G1 X569.54 Y-194.94 Z-2.972
G1 X569.527 Y-194.854 Z-2.993
G1 X569.513 Y-194.766 Z-3
G1 X568.333 Y-187.317
G1 X568.325 Y-187.218
G1 Y184.15
G1 Y187.213
G1 X568.333 Y187.313
G1 X568.829 Y190.449
G1 X568.845 Y190.547 Z-2.992
G1 X568.86 Y190.643 Z-2.969
G1 X568.875 Y190.733 Z-2.931
G1 X568.888 Y190.817 Z-2.879
G1 X568.9 Y190.892 Z-2.814
G1 X568.91 Y190.956 Z-2.738
G1 X568.918 Y191.008 Z-2.653
G1 X568.924 Y191.045 Z-2.561
G1 X568.928 Y191.068 Z-2.464
G1 X568.929 Y191.076 Z-2.365
G0 Z15

(2D CONTOUR3)
G0 X-578.485 Y-189.23
G0 Z15
G0 Z8.112
G1 Z-6.477 F508.
G1 Y-189.222 Z-6.576
G1 Y-189.199 Z-6.673
G1 Y-189.161 Z-6.765
G1 Y-189.109 Z-6.85
G1 Y-189.044 Z-6.926
G1 Y-188.968 Z-6.991
G1 Y-188.883 Z-7.043
G1 Y-188.791 Z-7.081
G1 Y-188.694 Z-7.104
G1 Y-188.595 Z-7.112
G1 Y-187.96
G2 X-577.85 Y-187.325 I0.635 J0
G1 X577.85
G3 X581.025 Y-184.15 I0 J3.175
G1 Y184.15
G3 X577.85 Y187.325 I-3.175 J0
G1 X-577.85
G3 X-581.025 Y184.15 I0 J-3.175
G1 Y-184.15
G3 X-577.85 Y-187.325 I3.175 J0
G2 X-577.215 Y-187.96 I0 J-0.635
G1 Y-188.595
G1 Y-188.694 Z-7.104
G1 Y-188.791 Z-7.081
G1 Y-188.883 Z-7.043
G1 Y-188.968 Z-6.991
G1 Y-189.044 Z-6.926
G1 Y-189.109 Z-6.85
G1 Y-189.161 Z-6.765
G1 Y-189.199 Z-6.673
G1 Y-189.222 Z-6.576
G1 Y-189.23 Z-6.477
G0 Z5
G0 X-578.485
G1 Z1 F508.
G1 Z-13.081
G1 Y-189.222 Z-13.18
G1 Y-189.199 Z-13.277
G1 Y-189.161 Z-13.369
G1 Y-189.109 Z-13.454
G1 Y-189.044 Z-13.53
G1 Y-188.968 Z-13.595
G1 Y-188.883 Z-13.647
G1 Y-188.791 Z-13.685
G1 Y-188.694 Z-13.708
G1 Y-188.595 Z-13.716
G1 Y-187.96
G2 X-577.85 Y-187.325 I0.635 J0
G1 X-531.668
G1 Z-7.366
G1 X-518.968
G1 Z-13.716
G1 X-426.605
G1 Z-7.366
G1 X-413.905
G1 Z-13.716
G1 X-321.541
G1 Z-7.366
G1 X-308.841
G1 Z-13.716
G1 X-216.477
G1 Z-7.366
G1 X-203.777
G1 Z-13.716
G1 X-111.414
G1 Z-7.366
G1 X-98.714
G1 Z-13.716
G1 X-6.35
G1 Z-7.366
G1 X6.35
G1 Z-13.716
G1 X98.714
G1 Z-7.366
G1 X111.414
G1 Z-13.716
G1 X203.777
G1 Z-7.366
G1 X216.477
G1 Z-13.716
G1 X308.841
G1 Z-7.366
G1 X321.541
G1 Z-13.716
G1 X413.905
G1 Z-7.366
G1 X426.605
G1 Z-13.716
G1 X518.968
G1 Z-7.366
G1 X531.668
G1 Z-13.716
G1 X577.85
G3 X581.025 Y-184.15 I0 J3.175
G1 Y-129.117
G1 Z-7.366
G1 Y-116.417
G1 Z-13.716
G1 Y-6.35
G1 Z-7.366
G1 Y6.35
G1 Z-13.716
G1 Y116.417
G1 Z-7.366
G1 Y129.117
G1 Z-13.716
G1 Y184.15
G3 X577.85 Y187.325 I-3.175 J0
G1 X531.668
G1 Z-7.366
G1 X518.968
G1 Z-13.716
G1 X426.605
G1 Z-7.366
G1 X413.905
G1 Z-13.716
G1 X321.541
G1 Z-7.366
G1 X308.841
G1 Z-13.716
G1 X216.477
G1 Z-7.366
G1 X203.777
G1 Z-13.716
G1 X111.414
G1 Z-7.366
G1 X98.714
G1 Z-13.716
G1 X6.35
G1 Z-7.366
G1 X-6.35
G1 Z-13.716
G1 X-98.714
G1 Z-7.366
G1 X-111.414
G1 Z-13.716
G1 X-203.777
G1 Z-7.366
G1 X-216.477
G1 Z-13.716
G1 X-308.841
G1 Z-7.366
G1 X-321.541
G1 Z-13.716
G1 X-413.905
G1 Z-7.366
G1 X-426.605
G1 Z-13.716
G1 X-518.968
G1 Z-7.366
G1 X-531.668
G1 Z-13.716
G1 X-577.85
G3 X-581.025 Y184.15 I0 J-3.175
G1 Y129.117
G1 Z-7.366
G1 Y116.417
G1 Z-13.716
G1 Y6.35
G1 Z-7.366
G1 Y-6.35
G1 Z-13.716
G1 Y-116.417
G1 Z-7.366
G1 Y-129.117
G1 Z-13.716
G1 Y-184.15
G3 X-577.85 Y-187.325 I3.175 J0
G2 X-577.215 Y-187.96 I0 J-0.635
G1 Y-188.595
G1 Y-188.694 Z-13.708
G1 Y-188.791 Z-13.685
G1 Y-188.883 Z-13.647
G1 Y-188.968 Z-13.595
G1 Y-189.044 Z-13.53
G1 Y-189.109 Z-13.454
G1 Y-189.161 Z-13.369
G1 Y-189.199 Z-13.277
G1 Y-189.222 Z-13.18
G1 Y-189.23 Z-13.081
G0 Z15

G0 Z15
M5
M30
