(SHELFBACK 6-8-18)
(T1  D=6.35 CR=0 - ZMIN=-13.716 - FLAT END MILL)
G0 G40 G90 G17
G21

(2D CONTOUR1)
T1 M6
M3 S12000
G0 X595.666 Y238.021
G0 Z15
G0 Z8.112
G1 Z-6.477 F508.
G1 X595.673 Y238.024 Z-6.576
G1 X595.695 Y238.032 Z-6.673
G1 X595.73 Y238.046 Z-6.765
G1 X595.779 Y238.065 Z-6.85
G1 X595.839 Y238.089 Z-6.926
G1 X595.909 Y238.116 Z-6.991
G1 X595.989 Y238.147 Z-7.043
G1 X596.074 Y238.181 Z-7.081
G1 X596.164 Y238.217 Z-7.104
G1 X596.257 Y238.253 Z-7.112
G1 X600.985 Y240.11 F254.
G2 X601.808 Y239.752 I0.232 J-0.591
G1 X604.821 Y232.083 F508.
G2 Y225.117 I-8.866 J-3.483
G1 X561.316 Y114.377
G2 X548.967 Y108.994 I-8.866 J3.483
G2 X542.925 Y117.86 I3.483 J8.866
G1 Y339.34
G2 X552.45 Y348.865 I9.525 J0
G2 X561.316 Y342.823 I0 J-9.525
G1 X601.808 Y239.752
G2 X601.799 Y239.266 I-0.591 J-0.232 F254.
G2 X601.449 Y238.928 I-0.582 J0.254
G1 X596.721 Y237.071
G1 X596.629 Y237.034 Z-7.104
G1 X596.539 Y236.999 Z-7.081
G1 X596.453 Y236.965 Z-7.043
G1 X596.374 Y236.934 Z-6.991
G1 X596.303 Y236.907 Z-6.926
G1 X596.243 Y236.883 Z-6.85
G1 X596.195 Y236.864 Z-6.765
G1 X596.159 Y236.85 Z-6.673
G1 X596.137 Y236.841 Z-6.576
G1 X596.13 Y236.839 Z-6.477
G0 Z5
G0 X595.666 Y238.021
G1 Z1 F508.
G1 Z-13.081
G1 X595.673 Y238.024 Z-13.18
G1 X595.695 Y238.032 Z-13.277
G1 X595.73 Y238.046 Z-13.369
G1 X595.779 Y238.065 Z-13.454
G1 X595.839 Y238.089 Z-13.53
G1 X595.909 Y238.116 Z-13.595
G1 X595.989 Y238.147 Z-13.647
G1 X596.074 Y238.181 Z-13.685
G1 X596.164 Y238.217 Z-13.708
G1 X596.257 Y238.253 Z-13.716
G1 X600.985 Y240.11 F254.
G2 X601.808 Y239.752 I0.232 J-0.591
G1 X604.821 Y232.083 F508.
G2 Y225.117 I-8.866 J-3.483
G1 X585.39 Y175.657
G1 Z-7.366
G1 X580.746 Y163.837
G1 Z-13.716
G1 X561.316 Y114.377
G2 X548.967 Y108.994 I-8.866 J3.483
G2 X542.925 Y117.86 I3.483 J8.866
G1 Y166.88
G1 Z-7.366
G1 Y179.58
G1 Z-13.716
G1 Y277.62
G1 Z-7.366
G1 Y290.32
G1 Z-13.716
G1 Y339.34
G2 X552.45 Y348.865 I9.525 J0
G2 X561.316 Y342.823 I0 J-9.525
G1 X580.746 Y293.363
G1 Z-7.366
G1 X585.39 Y281.543
G1 Z-13.716
G1 X601.808 Y239.752
G2 X601.799 Y239.266 I-0.591 J-0.232 F254.
G2 X601.449 Y238.928 I-0.582 J0.254
G1 X596.721 Y237.071
G1 X596.629 Y237.034 Z-13.708
G1 X596.539 Y236.999 Z-13.685
G1 X596.453 Y236.965 Z-13.647
G1 X596.374 Y236.934 Z-13.595
G1 X596.303 Y236.907 Z-13.53
G1 X596.243 Y236.883 Z-13.454
G1 X596.195 Y236.864 Z-13.369
G1 X596.159 Y236.85 Z-13.277
G1 X596.137 Y236.841 Z-13.18
G1 X596.13 Y236.839 Z-13.081
G0 Z8.112
G0 X733.425 Y229.235
G1 Z-6.477 F508.
G1 X733.433 Z-6.576
G1 X733.456 Z-6.673
G1 X733.494 Z-6.765
G1 X733.546 Z-6.85
G1 X733.611 Z-6.926
G1 X733.687 Z-6.991
G1 X733.772 Z-7.043
G1 X733.864 Z-7.081
G1 X733.961 Z-7.104
G1 X734.06 Z-7.112
G1 X739.14 F254.
G2 X739.775 Y228.6 I0 J-0.635
G1 Y117.86 F508.
G2 X730.25 Y108.335 I-9.525 J0
G2 X721.384 Y114.377 I0 J9.525
G1 X677.879 Y225.117
G2 Y232.083 I8.866 J3.483
G1 X721.384 Y342.823
G2 X733.733 Y348.206 I8.866 J-3.483
G2 X739.775 Y339.34 I-3.483 J-8.866
G1 Y228.6
G2 X739.14 Y227.965 I-0.635 J0 F254.
G1 X734.06
G1 X733.961 Z-7.104
G1 X733.864 Z-7.081
G1 X733.772 Z-7.043
G1 X733.687 Z-6.991
G1 X733.611 Z-6.926
G1 X733.546 Z-6.85
G1 X733.494 Z-6.765
G1 X733.456 Z-6.673
G1 X733.433 Z-6.576
G1 X733.425 Z-6.477
G0 Z5
G0 Y229.235
G1 Z1 F508.
G1 Z-13.081
G1 X733.433 Z-13.18
G1 X733.456 Z-13.277
G1 X733.494 Z-13.369
G1 X733.546 Z-13.454
G1 X733.611 Z-13.53
G1 X733.687 Z-13.595
G1 X733.772 Z-13.647
G1 X733.864 Z-13.685
G1 X733.961 Z-13.708
G1 X734.06 Z-13.716
G1 X739.14 F254.
G2 X739.775 Y228.6 I0 J-0.635
G1 Y179.58 F508.
G1 Z-7.366
G1 Y166.88
G1 Z-13.716
G1 Y117.86
G2 X730.25 Y108.335 I-9.525 J0
G2 X721.384 Y114.377 I0 J9.525
G1 X701.954 Y163.837
G1 Z-7.366
G1 X697.31 Y175.657
G1 Z-13.716
G1 X677.879 Y225.117
G2 Y232.083 I8.866 J3.483
G1 X697.31 Y281.543
G1 Z-7.366
G1 X701.954 Y293.363
G1 Z-13.716
G1 X721.384 Y342.823
G2 X733.733 Y348.206 I8.866 J-3.483
G2 X739.775 Y339.34 I-3.483 J-8.866
G1 Y290.32
G1 Z-7.366
G1 Y277.62
G1 Z-13.716
G1 Y228.6
G2 X739.14 Y227.965 I-0.635 J0 F254.
G1 X734.06
G1 X733.961 Z-13.708
G1 X733.864 Z-13.685
G1 X733.772 Z-13.647
G1 X733.687 Z-13.595
G1 X733.611 Z-13.53
G1 X733.546 Z-13.454
G1 X733.494 Z-13.369
G1 X733.456 Z-13.277
G1 X733.433 Z-13.18
G1 X733.425 Z-13.081
G0 Z8.112
G0 X885.347 Y254.452
G1 Z-6.477 F508.
G1 X885.353 Y254.456 Z-6.576
G1 X885.372 Y254.469 Z-6.673
G1 X885.404 Y254.491 Z-6.765
G1 X885.447 Y254.52 Z-6.85
G1 X885.501 Y254.556 Z-6.926
G1 X885.563 Y254.599 Z-6.991
G1 X885.634 Y254.646 Z-7.043
G1 X885.71 Y254.698 Z-7.081
G1 X885.79 Y254.753 Z-7.104
G1 X885.872 Y254.808 Z-7.112
G1 X890.076 Y257.661 F254.
G2 X890.958 Y257.492 I0.357 J-0.525
G1 X902.095 Y241.079 F508.
G2 Y216.121 I-18.391 J-12.479
G1 X837.541 Y120.988
G2 X806.671 Y115.076 I-18.391 J12.479
G2 X796.925 Y133.467 I12.479 J18.391
G1 Y323.733
G2 X819.15 Y345.958 I22.225 J0
G2 X837.541 Y336.212 I0 J-22.225
G1 X890.958 Y257.492
G2 X890.789 Y256.61 I-0.525 J-0.357 F254.
G1 X886.585 Y253.757
G1 X886.503 Y253.702 Z-7.104
G1 X886.423 Y253.647 Z-7.081
G1 X886.347 Y253.596 Z-7.043
G1 X886.276 Y253.548 Z-6.991
G1 X886.214 Y253.505 Z-6.926
G1 X886.16 Y253.469 Z-6.85
G1 X886.117 Y253.44 Z-6.765
G1 X886.086 Y253.418 Z-6.673
G1 X886.066 Y253.405 Z-6.576
G1 X886.06 Y253.401 Z-6.477
G0 Z5
G0 X885.347 Y254.452
G1 Z1 F508.
G1 Z-13.081
G1 X885.353 Y254.456 Z-13.18
G1 X885.372 Y254.469 Z-13.277
G1 X885.404 Y254.491 Z-13.369
G1 X885.447 Y254.52 Z-13.454
G1 X885.501 Y254.556 Z-13.53
G1 X885.563 Y254.599 Z-13.595
G1 X885.634 Y254.646 Z-13.647
G1 X885.71 Y254.698 Z-13.685
G1 X885.79 Y254.753 Z-13.708
G1 X885.872 Y254.808 Z-13.716
G1 X890.076 Y257.661 F254.
G2 X890.958 Y257.492 I0.357 J-0.525
G1 X902.095 Y241.079 F508.
G2 Y216.121 I-18.391 J-12.479
G1 X873.383 Y173.809
G1 Z-7.366
G1 X866.253 Y163.3
G1 Z-13.716
G1 X837.541 Y120.988
G2 X806.671 Y115.076 I-18.391 J12.479
G2 X796.925 Y133.467 I12.479 J18.391
G1 Y174.684
G1 Z-7.366
G1 Y187.384
G1 Z-13.716
G1 Y269.816
G1 Z-7.366
G1 Y282.516
G1 Z-13.716
G1 Y323.733
G2 X819.15 Y345.958 I22.225 J0
G2 X837.541 Y336.212 I0 J-22.225
G1 X866.253 Y293.9
G1 Z-7.366
G1 X873.383 Y283.391
G1 Z-13.716
G1 X890.958 Y257.492
G2 X890.789 Y256.61 I-0.525 J-0.357 F254.
G1 X886.585 Y253.757
G1 X886.503 Y253.702 Z-13.708
G1 X886.423 Y253.647 Z-13.685
G1 X886.347 Y253.596 Z-13.647
G1 X886.276 Y253.548 Z-13.595
G1 X886.214 Y253.505 Z-13.53
G1 X886.16 Y253.469 Z-13.454
G1 X886.117 Y253.44 Z-13.369
G1 X886.086 Y253.418 Z-13.277
G1 X886.066 Y253.405 Z-13.18
G1 X886.06 Y253.401 Z-13.081
G0 Z8.112
G0 X1095.375 Y229.235
G1 Z-6.477 F508.
G1 X1095.383 Z-6.576
G1 X1095.406 Z-6.673
G1 X1095.444 Z-6.765
G1 X1095.496 Z-6.85
G1 X1095.561 Z-6.926
G1 X1095.637 Z-6.991
G1 X1095.722 Z-7.043
G1 X1095.814 Z-7.081
G1 X1095.911 Z-7.104
G1 X1096.01 Z-7.112
G1 X1101.09 F254.
G2 X1101.725 Y228.6 I0 J-0.635
G1 Y133.467 F508.
G2 X1079.499 Y111.241 I-22.226 J0
G2 X1061.107 Y120.988 I0 J22.226
G1 X996.555 Y216.121
G2 Y241.079 I18.395 J12.479
G1 X1061.107 Y336.212
G2 X1091.978 Y342.125 I18.392 J-12.479
G2 X1101.725 Y323.733 I-12.479 J-18.392
G1 Y228.6
G2 X1101.09 Y227.965 I-0.635 J0 F254.
G1 X1096.01
G1 X1095.911 Z-7.104
G1 X1095.814 Z-7.081
G1 X1095.722 Z-7.043
G1 X1095.637 Z-6.991
G1 X1095.561 Z-6.926
G1 X1095.496 Z-6.85
G1 X1095.444 Z-6.765
G1 X1095.406 Z-6.673
G1 X1095.383 Z-6.576
G1 X1095.375 Z-6.477
G0 Z5
G0 Y229.235
G1 Z1 F508.
G1 Z-13.081
G1 X1095.383 Z-13.18
G1 X1095.406 Z-13.277
G1 X1095.444 Z-13.369
G1 X1095.496 Z-13.454
G1 X1095.561 Z-13.53
G1 X1095.637 Z-13.595
G1 X1095.722 Z-13.647
G1 X1095.814 Z-13.685
G1 X1095.911 Z-13.708
G1 X1096.01 Z-13.716
G1 X1101.09 F254.
G2 X1101.725 Y228.6 I0 J-0.635
G1 Y187.384 F508.
G1 Z-7.366
G1 Y174.684
G1 Z-13.716
G1 Y133.467
G2 X1079.499 Y111.241 I-22.226 J0
G2 X1061.107 Y120.988 I0 J22.226
G1 X1032.395 Y163.302
G1 Z-7.366
G1 X1025.264 Y173.811
G1 Z-13.716
G1 X996.555 Y216.121
G2 Y241.079 I18.395 J12.479
G1 X1025.264 Y283.389
G1 Z-7.366
G1 X1032.395 Y293.898
G1 Z-13.716
G1 X1061.107 Y336.212
G2 X1091.978 Y342.125 I18.392 J-12.479
G2 X1101.725 Y323.733 I-12.479 J-18.392
G1 Y282.516
G1 Z-7.366
G1 Y269.816
G1 Z-13.716
G1 Y228.6
G2 X1101.09 Y227.965 I-0.635 J0 F254.
G1 X1096.01
G1 X1095.911 Z-13.708
G1 X1095.814 Z-13.685
G1 X1095.722 Z-13.647
G1 X1095.637 Z-13.595
G1 X1095.561 Z-13.53
G1 X1095.496 Z-13.454
G1 X1095.444 Z-13.369
G1 X1095.406 Z-13.277
G1 X1095.383 Z-13.18
G1 X1095.375 Z-13.081
G0 Z8.112
G0 X479.425 Y229.235
G1 Z-6.477 F508.
G1 X479.433 Z-6.576
G1 X479.456 Z-6.673
G1 X479.494 Z-6.765
G1 X479.546 Z-6.85
G1 X479.611 Z-6.926
G1 X479.687 Z-6.991
G1 X479.772 Z-7.043
G1 X479.864 Z-7.081
G1 X479.961 Z-7.104
G1 X480.06 Z-7.112
G1 X485.14 F254.
G2 X485.775 Y228.6 I0 J-0.635
G1 Y117.86 F508.
G2 X476.25 Y108.335 I-9.525 J0
G2 X467.384 Y114.377 I0 J9.525
G1 X423.879 Y225.117
G2 Y232.083 I8.866 J3.483
G1 X467.384 Y342.823
G2 X479.733 Y348.206 I8.866 J-3.483
G2 X485.775 Y339.34 I-3.483 J-8.866
G1 Y228.6
G2 X485.14 Y227.965 I-0.635 J0 F254.
G1 X480.06
G1 X479.961 Z-7.104
G1 X479.864 Z-7.081
G1 X479.772 Z-7.043
G1 X479.687 Z-6.991
G1 X479.611 Z-6.926
G1 X479.546 Z-6.85
G1 X479.494 Z-6.765
G1 X479.456 Z-6.673
G1 X479.433 Z-6.576
G1 X479.425 Z-6.477
G0 Z5
G0 Y229.235
G1 Z1 F508.
G1 Z-13.081
G1 X479.433 Z-13.18
G1 X479.456 Z-13.277
G1 X479.494 Z-13.369
G1 X479.546 Z-13.454
G1 X479.611 Z-13.53
G1 X479.687 Z-13.595
G1 X479.772 Z-13.647
G1 X479.864 Z-13.685
G1 X479.961 Z-13.708
G1 X480.06 Z-13.716
G1 X485.14 F254.
G2 X485.775 Y228.6 I0 J-0.635
G1 Y179.58 F508.
G1 Z-7.366
G1 Y166.88
G1 Z-13.716
G1 Y117.86
G2 X476.25 Y108.335 I-9.525 J0
G2 X467.384 Y114.377 I0 J9.525
G1 X447.954 Y163.837
G1 Z-7.366
G1 X443.31 Y175.657
G1 Z-13.716
G1 X423.879 Y225.117
G2 Y232.083 I8.866 J3.483
G1 X443.31 Y281.543
G1 Z-7.366
G1 X447.954 Y293.363
G1 Z-13.716
G1 X467.384 Y342.823
G2 X479.733 Y348.206 I8.866 J-3.483
G2 X485.775 Y339.34 I-3.483 J-8.866
G1 Y290.32
G1 Z-7.366
G1 Y277.62
G1 Z-13.716
G1 Y228.6
G2 X485.14 Y227.965 I-0.635 J0 F254.
G1 X480.06
G1 X479.961 Z-13.708
G1 X479.864 Z-13.685
G1 X479.772 Z-13.647
G1 X479.687 Z-13.595
G1 X479.611 Z-13.53
G1 X479.546 Z-13.454
G1 X479.494 Z-13.369
G1 X479.456 Z-13.277
G1 X479.433 Z-13.18
G1 X479.425 Z-13.081
G0 Z8.112
G0 X351.177 Y226.233
G1 Z-6.477 F508.
G1 X351.184 Y226.23 Z-6.576
G1 X351.206 Y226.222 Z-6.673
G1 X351.242 Y226.208 Z-6.765
G1 X351.29 Y226.189 Z-6.85
G1 X351.35 Y226.165 Z-6.926
G1 X351.421 Y226.137 Z-6.991
G1 X351.5 Y226.106 Z-7.043
G1 X351.585 Y226.073 Z-7.081
G1 X351.676 Y226.037 Z-7.104
G1 X351.768 Y226.001 Z-7.112
G1 X356.496 Y224.143 F254.
G2 X356.846 Y223.806 I-0.232 J-0.591
G2 X356.855 Y223.32 I-0.582 J-0.254
G1 X307.316 Y97.219 F508.
G2 X294.968 Y91.836 I-8.866 J3.483
G2 X288.925 Y100.702 I3.483 J8.866
G1 Y371.668
G2 X298.45 Y381.193 I9.525 J0
G2 X307.316 Y375.15 I0 J-9.525
G1 X360.541 Y239.668
G2 Y232.702 I-8.866 J-3.483
G1 X356.855 Y223.32
G2 X356.032 Y222.961 I-0.591 J0.232 F254.
G1 X351.304 Y224.819
G1 X351.211 Y224.855 Z-7.104
G1 X351.121 Y224.891 Z-7.081
G1 X351.035 Y224.924 Z-7.043
G1 X350.956 Y224.955 Z-6.991
G1 X350.886 Y224.983 Z-6.926
G1 X350.826 Y225.007 Z-6.85
G1 X350.777 Y225.026 Z-6.765
G1 X350.742 Y225.04 Z-6.673
G1 X350.72 Y225.048 Z-6.576
G1 X350.713 Y225.051 Z-6.477
G0 Z5
G0 X351.177 Y226.233
G1 Z1 F508.
G1 Z-13.081
G1 X351.184 Y226.23 Z-13.18
G1 X351.206 Y226.222 Z-13.277
G1 X351.242 Y226.208 Z-13.369
G1 X351.29 Y226.189 Z-13.454
G1 X351.35 Y226.165 Z-13.53
G1 X351.421 Y226.137 Z-13.595
G1 X351.5 Y226.106 Z-13.647
G1 X351.585 Y226.073 Z-13.685
G1 X351.676 Y226.037 Z-13.708
G1 X351.768 Y226.001 Z-13.716
G1 X356.496 Y224.143 F254.
G2 X356.846 Y223.806 I-0.232 J-0.591
G2 X356.855 Y223.32 I-0.582 J-0.254
G1 X336.25 Y170.871 F508.
G1 Z-7.366
G1 X331.607 Y159.05
G1 Z-13.716
G1 X307.316 Y97.219
G2 X294.968 Y91.836 I-8.866 J3.483
G2 X288.925 Y100.702 I3.483 J8.866
G1 Y139.513
G1 Z-7.366
G1 Y152.213
G1 Z-13.716
G1 Y229.835
G1 Z-7.366
G1 Y242.535
G1 Z-13.716
G1 Y320.157
G1 Z-7.366
G1 Y332.857
G1 Z-13.716
G1 Y371.668
G2 X298.45 Y381.193 I9.525 J0
G2 X307.316 Y375.15 I0 J-9.525
G1 X331.606 Y313.319
G1 Z-7.366
G1 X336.25 Y301.499
G1 Z-13.716
G1 X360.541 Y239.668
G2 Y232.702 I-8.866 J-3.483
G1 X356.855 Y223.32
G2 X356.032 Y222.961 I-0.591 J0.232 F254.
G1 X351.304 Y224.819
G1 X351.211 Y224.855 Z-13.708
G1 X351.121 Y224.891 Z-13.685
G1 X351.035 Y224.924 Z-13.647
G1 X350.956 Y224.955 Z-13.595
G1 X350.886 Y224.983 Z-13.53
G1 X350.826 Y225.007 Z-13.454
G1 X350.777 Y225.026 Z-13.369
G1 X350.742 Y225.04 Z-13.277
G1 X350.72 Y225.048 Z-13.18
G1 X350.713 Y225.051 Z-13.081
G0 Z8.112
G0 X225.425 Y229.186
G1 Z-6.477 F508.
G1 X225.433 Z-6.576
G1 X225.456 Z-6.673
G1 X225.494 Z-6.765
G1 X225.546 Z-6.85
G1 X225.611 Z-6.926
G1 X225.687 Z-6.991
G1 X225.772 Z-7.043
G1 X225.864 Z-7.081
G1 X225.961 Z-7.104
G1 X226.06 Z-7.112
G1 X231.14 F254.
G2 X231.775 Y228.551 I0 J-0.635
G1 Y111.812 F508.
G2 X222.25 Y102.287 I-9.525 J0
G2 X213.516 Y108.011 I0 J9.525
G1 X162.716 Y224.748
G2 Y232.347 I8.734 J3.8
G1 X213.516 Y349.154
G2 X226.049 Y354.09 I8.735 J-3.799
G2 X231.775 Y345.355 I-3.799 J-8.735
G1 Y228.551
G2 X231.14 Y227.916 I-0.635 J0 F254.
G1 X226.06
G1 X225.961 Z-7.104
G1 X225.864 Z-7.081
G1 X225.772 Z-7.043
G1 X225.687 Z-6.991
G1 X225.611 Z-6.926
G1 X225.546 Z-6.85
G1 X225.494 Z-6.765
G1 X225.456 Z-6.673
G1 X225.433 Z-6.576
G1 X225.425 Z-6.477
G0 Z5
G0 Y229.186
G1 Z1 F508.
G1 Z-13.081
G1 X225.433 Z-13.18
G1 X225.456 Z-13.277
G1 X225.494 Z-13.369
G1 X225.546 Z-13.454
G1 X225.611 Z-13.53
G1 X225.687 Z-13.595
G1 X225.772 Z-13.647
G1 X225.864 Z-13.685
G1 X225.961 Z-13.708
G1 X226.06 Z-13.716
G1 X227.965 F254.
G1 Z-7.366
G1 X231.14
G2 X231.775 Y228.551 I0 J-0.635
G1 Y222.233 F508.
G1 Z-13.716
G1 Y157.086
G1 Z-7.366
G1 Y144.386
G1 Z-13.716
G1 Y111.812
G2 X222.25 Y102.287 I-9.525 J0
G2 X213.516 Y108.011 I0 J9.525
G1 X190.65 Y160.557
G1 Z-7.366
G1 X185.582 Y172.202
G1 Z-13.716
G1 X162.716 Y224.748
G2 Y232.347 I8.734 J3.8
G1 X185.583 Y284.928
G1 Z-7.366
G1 X190.648 Y296.574
G1 Z-13.716
G1 X213.516 Y349.154
G2 X226.049 Y354.09 I8.735 J-3.799
G2 X231.775 Y345.355 I-3.799 J-8.735
G1 Y312.781
G1 Z-7.366
G1 Y300.081
G1 Z-13.716
G1 Y234.933
G1 Z-7.366
G1 Y228.551
G2 X231.14 Y227.916 I-0.635 J0 F254.
G1 X227.965
G1 Z-13.716 F508.
G1 X226.06 F254.
G1 X225.961 Z-13.708
G1 X225.864 Z-13.685
G1 X225.772 Z-13.647
G1 X225.687 Z-13.595
G1 X225.611 Z-13.53
G1 X225.546 Z-13.454
G1 X225.494 Z-13.369
G1 X225.456 Z-13.277
G1 X225.433 Z-13.18
G1 X225.425 Z-13.081
G0 Z8.112
G0 X93.804 Y235.334
G1 Z-6.477 F508.
G1 X93.811 Y235.338 Z-6.576
G1 X93.832 Y235.347 Z-6.673
G1 X93.868 Y235.361 Z-6.765
G1 X93.915 Y235.382 Z-6.85
G1 X93.975 Y235.407 Z-6.926
G1 X94.045 Y235.436 Z-6.991
G1 X94.123 Y235.47 Z-7.043
G1 X94.208 Y235.505 Z-7.081
G1 X94.297 Y235.543 Z-7.104
G1 X94.389 Y235.582 Z-7.112
G1 X99.067 Y237.562 F254.
G2 X99.553 Y237.566 I0.247 J-0.585
G2 X99.899 Y237.225 I-0.239 J-0.589
G1 X104.022 Y227.483 F508.
G2 X103.944 Y219.879 I-8.772 J-3.712
G1 X53.144 Y106.374
G2 X40.559 Y101.571 I-8.694 J3.891
G2 X34.925 Y110.265 I3.891 J8.694
G1 Y343.805
G2 X44.45 Y353.33 I9.525 J0
G2 X53.222 Y347.518 I0 J-9.525
G1 X99.899 Y237.225
G2 X99.562 Y236.392 I-0.585 J-0.247 F254.
G1 X94.884 Y234.412
G1 X94.792 Y234.374 Z-7.104
G1 X94.703 Y234.336 Z-7.081
G1 X94.618 Y234.3 Z-7.043
G1 X94.54 Y234.267 Z-6.991
G1 X94.47 Y234.237 Z-6.926
G1 X94.41 Y234.212 Z-6.85
G1 X94.363 Y234.192 Z-6.765
G1 X94.327 Y234.177 Z-6.673
G1 X94.306 Y234.168 Z-6.576
G1 X94.299 Y234.165 Z-6.477
G0 Z5
G0 X93.804 Y235.334
G1 Z1 F508.
G1 Z-13.081
G1 X93.811 Y235.338 Z-13.18
G1 X93.832 Y235.347 Z-13.277
G1 X93.868 Y235.361 Z-13.369
G1 X93.915 Y235.382 Z-13.454
G1 X93.975 Y235.407 Z-13.53
G1 X94.045 Y235.436 Z-13.595
G1 X94.123 Y235.47 Z-13.647
G1 X94.208 Y235.505 Z-13.685
G1 X94.297 Y235.543 Z-13.708
G1 X94.389 Y235.582 Z-13.716
G1 X99.067 Y237.562 F254.
G2 X99.553 Y237.566 I0.247 J-0.585
G2 X99.899 Y237.225 I-0.239 J-0.589
G1 X104.022 Y227.483 F508.
G2 X103.944 Y219.879 I-8.772 J-3.712
G1 X81.138 Y168.922
G1 Z-7.366
G1 X75.95 Y157.33
G1 Z-13.716
G1 X53.144 Y106.374
G2 X40.559 Y101.571 I-8.694 J3.891
G2 X34.925 Y110.265 I3.891 J8.694
G1 Y142.838
G1 Z-7.366
G1 Y155.538
G1 Z-13.716
G1 Y220.685
G1 Z-7.366
G1 Y233.385
G1 Z-13.716
G1 Y298.532
G1 Z-7.366
G1 Y311.232
G1 Z-13.716
G1 Y343.805
G2 X44.45 Y353.33 I9.525 J0
G2 X53.222 Y347.518 I0 J-9.525
G1 X76.147 Y293.348
G1 Z-7.366
G1 X81.097 Y281.652
G1 Z-13.716
G1 X99.899 Y237.225
G2 X99.562 Y236.392 I-0.585 J-0.247 F254.
G1 X94.884 Y234.412
G1 X94.792 Y234.374 Z-13.708
G1 X94.703 Y234.336 Z-13.685
G1 X94.618 Y234.3 Z-13.647
G1 X94.54 Y234.267 Z-13.595
G1 X94.47 Y234.237 Z-13.53
G1 X94.41 Y234.212 Z-13.454
G1 X94.363 Y234.192 Z-13.369
G1 X94.327 Y234.177 Z-13.277
G1 X94.306 Y234.168 Z-13.18
G1 X94.299 Y234.165 Z-13.081
G0 Z15

(2D CONTOUR2)
G0 X665.626 Y93.066
G0 Z10
G0 Z7.35
G1 Z-5.715 F508.
G1 X665.633 Y93.069 Z-5.814
G1 X665.655 Y93.077 Z-5.911
G1 X665.691 Y93.091 Z-6.003
G1 X665.739 Y93.11 Z-6.088
G1 X665.799 Y93.134 Z-6.164
G1 X665.87 Y93.162 Z-6.229
G1 X665.949 Y93.193 Z-6.281
G1 X666.035 Y93.226 Z-6.319
G1 X666.125 Y93.262 Z-6.342
G1 X666.217 Y93.298 Z-6.35
G1 X666.808 Y93.53 F254.
G2 X667.294 Y93.521 I0.232 J-0.591
G2 X667.631 Y93.171 I-0.254 J-0.582
G1 X678.011 Y66.751 F508.
G2 X672.987 Y55.226 I-8.275 J-3.251
G2 X669.736 Y54.61 I-3.251 J8.275
G1 X612.964
G2 X604.074 Y63.5 I0 J8.89
G2 X604.689 Y66.751 I8.89 J0
G1 X633.075 Y139.007
G2 X644.601 Y144.031 I8.275 J-3.251
G2 X649.625 Y139.007 I-3.251 J-8.275
G1 X667.631 Y93.171
G3 X668.101 Y92.844 I0.48 J0.189
G2 X668.571 Y92.517 I-0.011 J-0.516
G1 X678.602 Y66.983
G2 X673.219 Y54.635 I-8.866 J-3.483
G2 X669.736 Y53.975 I-3.483 J8.866
G1 X612.964
G2 X603.439 Y63.5 I0 J9.525
G2 X604.098 Y66.983 I9.525 J0
G1 X632.484 Y139.239
G2 X644.833 Y144.622 I8.866 J-3.483
G2 X650.216 Y139.239 I-3.483 J-8.866
G1 X668.571 Y92.517
G2 X668.562 Y92.031 I-0.591 J-0.232 F254.
G2 X668.212 Y91.694 I-0.582 J0.254
G1 X667.621 Y91.462
G1 X667.528 Y91.425 Z-6.342
G1 X667.438 Y91.39 Z-6.319
G1 X667.353 Y91.356 Z-6.281
G1 X667.273 Y91.325 Z-6.229
G1 X667.203 Y91.297 Z-6.164
G1 X667.143 Y91.274 Z-6.088
G1 X667.094 Y91.255 Z-6.003
G1 X667.059 Y91.241 Z-5.911
G1 X667.037 Y91.232 Z-5.814
G1 X667.03 Y91.229 Z-5.715
G0 Z5
G0 X665.626 Y93.066
G1 Z1 F508.
G1 Z-9.398
G1 X665.633 Y93.069 Z-9.497
G1 X665.655 Y93.077 Z-9.594
G1 X665.691 Y93.091 Z-9.686
G1 X665.739 Y93.11 Z-9.771
G1 X665.799 Y93.134 Z-9.847
G1 X665.87 Y93.162 Z-9.912
G1 X665.949 Y93.193 Z-9.964
G1 X666.035 Y93.226 Z-10.002
G1 X666.125 Y93.262 Z-10.025
G1 X666.217 Y93.298 Z-10.033
G1 X666.808 Y93.53 F254.
G2 X667.294 Y93.521 I0.232 J-0.591
G2 X667.631 Y93.171 I-0.254 J-0.582
G1 X678.011 Y66.751 F508.
G2 X672.987 Y55.226 I-8.275 J-3.251
G2 X669.736 Y54.61 I-3.251 J8.275
G1 X647.7
G1 Z-7.366
G1 X635
G1 Z-10.033
G1 X612.964
G2 X604.074 Y63.5 I0 J8.89
G2 X604.689 Y66.751 I8.89 J0
G1 X616.56 Y96.969
G1 Z-7.366
G1 X621.204 Y108.789
G1 Z-10.033
G1 X633.075 Y139.007
G2 X644.601 Y144.031 I8.275 J-3.251
G2 X649.625 Y139.007 I-3.251 J-8.275
G1 X661.496 Y108.789
G1 Z-7.366
G1 X666.14 Y96.969
G1 Z-10.033
G1 X667.631 Y93.171
G3 X668.101 Y92.844 I0.48 J0.189
G2 X668.571 Y92.517 I-0.011 J-0.516
G1 X678.602 Y66.983
G2 X673.219 Y54.635 I-8.866 J-3.483
G2 X669.736 Y53.975 I-3.483 J8.866
G1 X647.7
G1 Z-7.366
G1 X635
G1 Z-10.033
G1 X612.964
G2 X603.439 Y63.5 I0 J9.525
G2 X604.098 Y66.983 I9.525 J0
G1 X615.969 Y97.201
G1 Z-7.366
G1 X620.613 Y109.021
G1 Z-10.033
G1 X632.484 Y139.239
G2 X644.833 Y144.622 I8.866 J-3.483
G2 X650.216 Y139.239 I-3.483 J-8.866
G1 X662.087 Y109.021
G1 Z-7.366
G1 X666.731 Y97.201
G1 Z-10.033
G1 X668.571 Y92.517
G2 X668.562 Y92.031 I-0.591 J-0.232 F254.
G2 X668.212 Y91.694 I-0.582 J0.254
G1 X667.621 Y91.462
G1 X667.528 Y91.425 Z-10.025
G1 X667.438 Y91.39 Z-10.002
G1 X667.353 Y91.356 Z-9.964
G1 X667.273 Y91.325 Z-9.912
G1 X667.203 Y91.297 Z-9.847
G1 X667.143 Y91.274 Z-9.771
G1 X667.094 Y91.255 Z-9.686
G1 X667.059 Y91.241 Z-9.594
G1 X667.037 Y91.232 Z-9.497
G1 X667.03 Y91.229 Z-9.398
G0 Z5
G0 X665.626 Y93.066
G1 Z-2.683 F508.
G1 Z-13.081
G1 X665.633 Y93.069 Z-13.18
G1 X665.655 Y93.077 Z-13.277
G1 X665.691 Y93.091 Z-13.369
G1 X665.739 Y93.11 Z-13.454
G1 X665.799 Y93.134 Z-13.53
G1 X665.87 Y93.162 Z-13.595
G1 X665.949 Y93.193 Z-13.647
G1 X666.035 Y93.226 Z-13.685
G1 X666.125 Y93.262 Z-13.708
G1 X666.217 Y93.298 Z-13.716
G1 X666.808 Y93.53 F254.
G2 X667.294 Y93.521 I0.232 J-0.591
G2 X667.631 Y93.171 I-0.254 J-0.582
G1 X678.011 Y66.751 F508.
G2 X672.987 Y55.226 I-8.275 J-3.251
G2 X669.736 Y54.61 I-3.251 J8.275
G1 X647.7
G1 Z-7.366
G1 X635
G1 Z-13.716
G1 X612.964
G2 X604.074 Y63.5 I0 J8.89
G2 X604.689 Y66.751 I8.89 J0
G1 X616.56 Y96.969
G1 Z-7.366
G1 X621.204 Y108.789
G1 Z-13.716
G1 X633.075 Y139.007
G2 X644.601 Y144.031 I8.275 J-3.251
G2 X649.625 Y139.007 I-3.251 J-8.275
G1 X661.496 Y108.789
G1 Z-7.366
G1 X666.14 Y96.969
G1 Z-13.716
G1 X667.631 Y93.171
G3 X668.101 Y92.844 I0.48 J0.189
G2 X668.571 Y92.517 I-0.011 J-0.516
G1 X678.602 Y66.983
G2 X673.219 Y54.635 I-8.866 J-3.483
G2 X669.736 Y53.975 I-3.483 J8.866
G1 X647.7
G1 Z-7.366
G1 X635
G1 Z-13.716
G1 X612.964
G2 X603.439 Y63.5 I0 J9.525
G2 X604.098 Y66.983 I9.525 J0
G1 X615.969 Y97.201
G1 Z-7.366
G1 X620.613 Y109.021
G1 Z-13.716
G1 X632.484 Y139.239
G2 X644.833 Y144.622 I8.866 J-3.483
G2 X650.216 Y139.239 I-3.483 J-8.866
G1 X662.087 Y109.021
G1 Z-7.366
G1 X666.731 Y97.201
G1 Z-13.716
G1 X668.571 Y92.517
G2 X668.562 Y92.031 I-0.591 J-0.232 F254.
G2 X668.212 Y91.694 I-0.582 J0.254
G1 X667.621 Y91.462
G1 X667.528 Y91.425 Z-13.708
G1 X667.438 Y91.39 Z-13.685
G1 X667.353 Y91.356 Z-13.647
G1 X667.273 Y91.325 Z-13.595
G1 X667.203 Y91.297 Z-13.53
G1 X667.143 Y91.274 Z-13.454
G1 X667.094 Y91.255 Z-13.369
G1 X667.059 Y91.241 Z-13.277
G1 X667.037 Y91.232 Z-13.18
G1 X667.03 Y91.229 Z-13.081
G0 Z7.35
G0 X983.278 Y129.384
G1 Z-5.715 F508.
G1 X983.284 Y129.388 Z-5.814
G1 X983.304 Y129.401 Z-5.911
G1 X983.335 Y129.423 Z-6.003
G1 X983.378 Y129.452 Z-6.088
G1 X983.432 Y129.488 Z-6.164
G1 X983.494 Y129.531 Z-6.229
G1 X983.565 Y129.578 Z-6.281
G1 X983.641 Y129.63 Z-6.319
G1 X983.721 Y129.685 Z-6.342
G1 X983.803 Y129.74 Z-6.35
G1 X984.329 Y130.097 F254.
G2 X984.805 Y130.195 I0.357 J-0.525
G2 X985.211 Y129.928 I-0.119 J-0.624
G1 X1008.287 Y95.921 F508.
G2 X1002.544 Y65.933 I-17.866 J-12.122
G2 X990.421 Y62.209 I-12.122 J17.866
G1 X908.229
G2 X886.639 Y83.799 I0 J21.59
G2 X890.364 Y95.921 I21.59 J0
G1 X931.46 Y156.484
G2 X961.448 Y162.226 I17.865 J-12.123
G2 X967.19 Y156.484 I-12.123 J-17.865
G1 X985.211 Y129.928
G3 X985.741 Y129.712 I0.427 J0.29
G2 X986.271 Y129.496 I0.103 J-0.505
G1 X1008.813 Y96.278
G2 X1002.9 Y65.408 I-18.391 J-12.479
G2 X990.421 Y61.574 I-12.479 J18.391
G1 X908.229
G2 X886.004 Y83.799 I0 J22.225
G2 X889.838 Y96.278 I22.225 J0
G1 X930.934 Y156.84
G2 X961.804 Y162.752 I18.391 J-12.479
G2 X967.716 Y156.84 I-12.479 J-18.391
G1 X986.271 Y129.496
G2 X986.369 Y129.02 I-0.525 J-0.357 F254.
G2 X986.102 Y128.614 I-0.624 J0.119
G1 X985.577 Y128.258
G1 X985.495 Y128.202 Z-6.342
G1 X985.414 Y128.148 Z-6.319
G1 X985.338 Y128.096 Z-6.281
G1 X985.268 Y128.048 Z-6.229
G1 X985.205 Y128.006 Z-6.164
G1 X985.152 Y127.969 Z-6.088
G1 X985.109 Y127.94 Z-6.003
G1 X985.077 Y127.919 Z-5.911
G1 X985.058 Y127.906 Z-5.814
G1 X985.051 Y127.901 Z-5.715
G0 Z5
G0 X983.278 Y129.384
G1 Z1 F508.
G1 Z-7.366
G1 X983.803 Y129.74
G1 X984.329 Y130.097 F254.
G2 X984.805 Y130.195 I0.357 J-0.525
G2 X985.211 Y129.928 I-0.119 J-0.624
G1 X991.304 Y120.948 F508.
G1 Z-10.033
G1 X1008.287 Y95.921
G2 X1011.628 Y79.745 I-17.866 J-12.122
G1 Z-7.366
G2 X1005.68 Y68.524 I-21.206 J4.054
G1 Z-10.033
G2 X990.421 Y62.209 I-15.258 J15.275
G1 X955.675
G1 Z-7.366
G1 X942.975
G1 Z-10.033
G1 X908.229
G2 X892.969 Y68.525 I0 J21.59
G1 Z-7.366
G2 X887.023 Y79.747 I15.26 J15.273
G1 Z-10.033
G2 X890.364 Y95.921 I21.206 J4.052
G1 X907.346 Y120.948
G1 Z-7.366
G1 X914.477 Y131.457
G1 Z-10.033
G1 X931.46 Y156.484
G2 X961.448 Y162.226 I17.865 J-12.123
G2 X967.19 Y156.484 I-12.123 J-17.865
G1 X984.173 Y131.457
G1 Z-7.366
G1 X985.211 Y129.928
G3 X985.741 Y129.712 I0.427 J0.29
G2 X986.271 Y129.496 I0.103 J-0.505
G1 X991.83 Y121.305
G1 Z-10.033
G1 X1008.813 Y96.278
G2 X1012.214 Y79.434 I-18.391 J-12.479
G1 Z-7.366
G2 X1006.266 Y68.213 I-21.793 J4.365
G1 Z-10.033
G2 X990.421 Y61.574 I-15.845 J15.586
G1 X955.675
G1 Z-7.366
G1 X942.975
G1 Z-10.033
G1 X908.229
G2 X892.383 Y68.215 I0 J22.225
G1 Z-7.366
G2 X886.436 Y79.436 I15.846 J15.584
G1 Z-10.033
G2 X889.838 Y96.278 I21.793 J4.362
G1 X906.821 Y121.305
G1 Z-7.366
G1 X913.952 Y131.814
G1 Z-10.033
G1 X930.934 Y156.84
G2 X961.804 Y162.752 I18.391 J-12.479
G2 X967.716 Y156.84 I-12.479 J-18.391
G1 X984.698 Y131.814
G1 Z-7.366
G1 X986.271 Y129.496
G2 X986.369 Y129.02 I-0.525 J-0.357 F254.
G2 X986.102 Y128.614 I-0.624 J0.119
G1 X985.051 Y127.901
G0 Z5
G0 X983.278 Y129.384
G1 Z-2.683 F508.
G1 Z-7.366
G1 X983.803 Y129.74
G1 X984.329 Y130.097 F254.
G2 X984.805 Y130.195 I0.357 J-0.525
G2 X985.211 Y129.928 I-0.119 J-0.624
G1 X991.304 Y120.948 F508.
G1 Z-13.716
G1 X1008.287 Y95.921
G2 X1011.628 Y79.745 I-17.866 J-12.122
G1 Z-7.366
G2 X1005.68 Y68.524 I-21.206 J4.054
G1 Z-13.716
G2 X990.421 Y62.209 I-15.258 J15.275
G1 X955.675
G1 Z-7.366
G1 X942.975
G1 Z-13.716
G1 X908.229
G2 X892.969 Y68.525 I0 J21.59
G1 Z-7.366
G2 X887.023 Y79.747 I15.26 J15.273
G1 Z-13.716
G2 X890.364 Y95.921 I21.206 J4.052
G1 X907.346 Y120.948
G1 Z-7.366
G1 X914.477 Y131.457
G1 Z-13.716
G1 X931.46 Y156.484
G2 X961.448 Y162.226 I17.865 J-12.123
G2 X967.19 Y156.484 I-12.123 J-17.865
G1 X984.173 Y131.457
G1 Z-7.366
G1 X985.211 Y129.928
G3 X985.741 Y129.712 I0.427 J0.29
G2 X986.271 Y129.496 I0.103 J-0.505
G1 X991.83 Y121.305
G1 Z-13.716
G1 X1008.813 Y96.278
G2 X1012.214 Y79.434 I-18.391 J-12.479
G1 Z-7.366
G2 X1006.266 Y68.213 I-21.793 J4.365
G1 Z-13.716
G2 X990.421 Y61.574 I-15.845 J15.586
G1 X955.675
G1 Z-7.366
G1 X942.975
G1 Z-13.716
G1 X908.229
G2 X892.383 Y68.215 I0 J22.225
G1 Z-7.366
G2 X886.436 Y79.436 I15.846 J15.584
G1 Z-13.716
G2 X889.838 Y96.278 I21.793 J4.362
G1 X906.821 Y121.305
G1 Z-7.366
G1 X913.952 Y131.814
G1 Z-13.716
G1 X930.934 Y156.84
G2 X961.804 Y162.752 I18.391 J-12.479
G2 X967.716 Y156.84 I-12.479 J-18.391
G1 X984.698 Y131.814
G1 Z-7.366
G1 X986.271 Y129.496
G2 X986.369 Y129.02 I-0.525 J-0.357 F254.
G2 X986.102 Y128.614 I-0.624 J0.119
G1 X985.051 Y127.901
G0 Z7.35
G0 X986.252 Y332.203
G1 Z-5.715 F508.
G1 X986.258 Y332.198 Z-5.814
G1 X986.277 Y332.185 Z-5.911
G1 X986.309 Y332.164 Z-6.003
G1 X986.352 Y332.135 Z-6.088
G1 X986.405 Y332.098 Z-6.164
G1 X986.468 Y332.056 Z-6.229
G1 X986.538 Y332.008 Z-6.281
G1 X986.615 Y331.956 Z-6.319
G1 X986.695 Y331.902 Z-6.342
G1 X986.777 Y331.846 Z-6.35
G1 X987.302 Y331.49 F254.
G2 X987.57 Y331.084 I-0.357 J-0.525
G2 X987.471 Y330.608 I-0.624 J-0.119
G1 X967.19 Y300.716 F508.
G2 X937.202 Y294.974 I-17.865 J12.123
G2 X931.46 Y300.716 I12.123 J17.865
G1 X885.208 Y368.877
G2 X890.95 Y398.865 I17.865 J12.123
G2 X903.073 Y402.59 I12.123 J-17.865
G1 X995.577
G2 X1017.164 Y381.001 I-0.001 J-21.588
G2 X1013.438 Y368.878 I-21.588 J0.001
G1 X987.471 Y330.608
G3 X987.467 Y330.035 I0.427 J-0.29
G2 X987.462 Y329.463 I-0.432 J-0.283
G1 X967.716 Y300.36
G2 X936.846 Y294.448 I-18.391 J12.479
G2 X930.934 Y300.36 I12.479 J18.391
G1 X884.682 Y368.521
G2 X890.594 Y399.391 I18.391 J12.479
G2 X903.073 Y403.225 I12.479 J-18.391
G1 X995.577
G2 X1017.799 Y381.001 I-0.001 J-22.223
G2 X1013.963 Y368.521 I-22.223 J0.001
G1 X987.462 Y329.463
G2 X986.58 Y329.294 I-0.525 J0.357 F254.
G1 X986.055 Y329.65
G1 X985.972 Y329.706 Z-6.342
G1 X985.892 Y329.761 Z-6.319
G1 X985.816 Y329.812 Z-6.281
G1 X985.746 Y329.86 Z-6.229
G1 X985.683 Y329.903 Z-6.164
G1 X985.63 Y329.939 Z-6.088
G1 X985.586 Y329.968 Z-6.003
G1 X985.555 Y329.99 Z-5.911
G1 X985.536 Y330.003 Z-5.814
G1 X985.529 Y330.007 Z-5.715
G0 Z5
G0 X986.252 Y332.203
G1 Z1 F508.
G1 Z-7.366
G1 X986.777 Y331.846
G1 X987.302 Y331.49 F254.
G2 X987.57 Y331.084 I-0.357 J-0.525
G2 X987.471 Y330.608 I-0.624 J-0.119
G1 X986.749 Y329.543 F508.
G1 Z-10.033
G1 X967.19 Y300.716
G2 X937.202 Y294.974 I-17.865 J12.123
G2 X931.46 Y300.716 I12.123 J17.865
G1 X911.899 Y329.542
G1 Z-7.366
G1 X904.768 Y340.051
G1 Z-10.033
G1 X885.208 Y368.877
G2 X881.867 Y385.051 I17.865 J12.123
G1 Z-7.366
G2 X887.813 Y396.273 I21.206 J-4.051
G1 Z-10.033
G2 X903.073 Y402.59 I15.26 J-15.273
G1 X942.975
G1 Z-7.366
G1 X955.675
G1 Z-10.033
G1 X995.577
G2 X1010.836 Y396.272 I-0.001 J-21.588
G1 Z-7.366
G2 X1016.781 Y385.05 I-15.26 J-15.27
G1 Z-10.033
G2 X1013.438 Y368.878 I-21.205 J-4.048
G1 X993.88 Y340.052
G1 Z-7.366
G1 X987.471 Y330.608
G3 X987.467 Y330.035 I0.427 J-0.29
G2 X987.462 Y329.463 I-0.432 J-0.283
G1 X987.275 Y329.186
G1 Z-10.033
G1 X967.716 Y300.36
G2 X936.846 Y294.448 I-18.391 J12.479
G2 X930.934 Y300.36 I12.479 J18.391
G1 X911.374 Y329.185
G1 Z-7.366
G1 X904.243 Y339.694
G1 Z-10.033
G1 X884.682 Y368.521
G2 X881.28 Y385.362 I18.391 J12.479
G1 Z-7.366
G2 X887.227 Y396.584 I21.793 J-4.362
G1 Z-10.033
G2 X903.073 Y403.225 I15.846 J-15.584
G1 X942.975
G1 Z-7.366
G1 X955.675
G1 Z-10.033
G1 X995.577
G2 X1011.422 Y396.583 I-0.001 J-22.223
G1 Z-7.366
G2 X1017.367 Y385.361 I-15.846 J-15.581
G1 Z-10.033
G2 X1013.963 Y368.521 I-21.791 J-4.359
G1 X994.405 Y339.696
G1 Z-7.366
G1 X987.462 Y329.463
G2 X987.196 Y329.24 I-0.525 J0.357 F254.
G1 Z-10.033 F508.
G2 X986.58 Y329.294 I-0.259 J0.58 F254.
G1 X986.055 Y329.65
G1 X985.972 Y329.706 Z-10.025
G1 X985.892 Y329.761 Z-10.002
G1 X985.816 Y329.812 Z-9.964
G1 X985.746 Y329.86 Z-9.912
G1 X985.683 Y329.903 Z-9.847
G1 X985.63 Y329.939 Z-9.771
G1 X985.586 Y329.968 Z-9.686
G1 X985.555 Y329.99 Z-9.594
G1 X985.536 Y330.003 Z-9.497
G1 X985.529 Y330.007 Z-9.398
G0 Z5
G0 X986.252 Y332.203
G1 Z-2.683 F508.
G1 Z-7.366
G1 X986.777 Y331.846
G1 X987.302 Y331.49 F254.
G2 X987.57 Y331.084 I-0.357 J-0.525
G2 X987.471 Y330.608 I-0.624 J-0.119
G1 X986.749 Y329.543 F508.
G1 Z-13.716
G1 X967.19 Y300.716
G2 X937.202 Y294.974 I-17.865 J12.123
G2 X931.46 Y300.716 I12.123 J17.865
G1 X911.899 Y329.542
G1 Z-7.366
G1 X904.768 Y340.051
G1 Z-13.716
G1 X885.208 Y368.877
G2 X881.867 Y385.051 I17.865 J12.123
G1 Z-7.366
G2 X887.813 Y396.273 I21.206 J-4.051
G1 Z-13.716
G2 X903.073 Y402.59 I15.26 J-15.273
G1 X942.975
G1 Z-7.366
G1 X955.675
G1 Z-13.716
G1 X995.577
G2 X1010.836 Y396.272 I-0.001 J-21.588
G1 Z-7.366
G2 X1016.781 Y385.05 I-15.26 J-15.27
G1 Z-13.716
G2 X1013.438 Y368.878 I-21.205 J-4.048
G1 X993.88 Y340.052
G1 Z-7.366
G1 X987.471 Y330.608
G3 X987.467 Y330.035 I0.427 J-0.29
G2 X987.462 Y329.463 I-0.432 J-0.283
G1 X987.275 Y329.186
G1 Z-13.716
G1 X967.716 Y300.36
G2 X936.846 Y294.448 I-18.391 J12.479
G2 X930.934 Y300.36 I12.479 J18.391
G1 X911.374 Y329.185
G1 Z-7.366
G1 X904.243 Y339.694
G1 Z-13.716
G1 X884.682 Y368.521
G2 X881.28 Y385.362 I18.391 J12.479
G1 Z-7.366
G2 X887.227 Y396.584 I21.793 J-4.362
G1 Z-13.716
G2 X903.073 Y403.225 I15.846 J-15.584
G1 X942.975
G1 Z-7.366
G1 X955.675
G1 Z-13.716
G1 X995.577
G2 X1011.422 Y396.583 I-0.001 J-22.223
G1 Z-7.366
G2 X1017.367 Y385.361 I-15.846 J-15.581
G1 Z-13.716
G2 X1013.963 Y368.521 I-21.791 J-4.359
G1 X994.405 Y339.696
G1 Z-7.366
G1 X987.462 Y329.463
G2 X987.196 Y329.24 I-0.525 J0.357 F254.
G1 Z-13.716 F508.
G2 X986.58 Y329.294 I-0.259 J0.58 F254.
G1 X986.055 Y329.65
G1 X985.972 Y329.706 Z-13.708
G1 X985.892 Y329.761 Z-13.685
G1 X985.816 Y329.812 Z-13.647
G1 X985.746 Y329.86 Z-13.595
G1 X985.683 Y329.903 Z-13.53
G1 X985.63 Y329.939 Z-13.454
G1 X985.586 Y329.968 Z-13.369
G1 X985.555 Y329.99 Z-13.277
G1 X985.536 Y330.003 Z-13.18
G1 X985.529 Y330.007 Z-13.081
G0 Z7.35
G0 X663.943 Y359.849
G1 Z-5.715 F508.
G1 X663.95 Y359.846 Z-5.814
G1 X663.971 Y359.838 Z-5.911
G1 X664.007 Y359.824 Z-6.003
G1 X664.055 Y359.805 Z-6.088
G1 X664.116 Y359.781 Z-6.164
G1 X664.186 Y359.753 Z-6.229
G1 X664.265 Y359.722 Z-6.281
G1 X664.351 Y359.689 Z-6.319
G1 X664.441 Y359.653 Z-6.342
G1 X664.534 Y359.617 Z-6.35
G1 X665.125 Y359.385 F254.
G2 X665.474 Y359.047 I-0.232 J-0.591
G2 X665.483 Y358.561 I-0.582 J-0.254
G1 X649.625 Y318.193 F508.
G2 X638.099 Y313.169 I-8.275 J3.251
G2 X633.075 Y318.193 I3.251 J8.275
G1 X608.075 Y381.831
G2 X613.1 Y393.356 I8.275 J3.25
G2 X616.35 Y393.971 I3.25 J-8.275
G1 X666.35
G2 X675.24 Y385.081 I0 J-8.89
G2 X674.625 Y381.831 I-8.89 J0
G1 X665.483 Y358.561
G3 X665.605 Y358.002 I0.48 J-0.189
G2 X665.726 Y357.443 I-0.359 J-0.371
G1 X650.216 Y317.961
G2 X637.867 Y312.578 I-8.866 J3.483
G2 X632.484 Y317.961 I3.483 J8.866
G1 X607.484 Y381.599
G2 X612.868 Y393.947 I8.866 J3.482
G2 X616.35 Y394.606 I3.482 J-8.866
G1 X666.35
G2 X675.875 Y385.081 I0 J-9.525
G2 X675.216 Y381.599 I-9.525 J0
G1 X665.726 Y357.443
G2 X664.903 Y357.084 I-0.591 J0.232 F254.
G1 X664.312 Y357.316
G1 X664.219 Y357.352 Z-6.342
G1 X664.129 Y357.388 Z-6.319
G1 X664.044 Y357.421 Z-6.281
G1 X663.964 Y357.453 Z-6.229
G1 X663.894 Y357.48 Z-6.164
G1 X663.834 Y357.504 Z-6.088
G1 X663.785 Y357.523 Z-6.003
G1 X663.75 Y357.537 Z-5.911
G1 X663.728 Y357.545 Z-5.814
G1 X663.721 Y357.548 Z-5.715
G0 Z5
G0 X663.943 Y359.849
G1 Z1 F508.
G1 Z-9.398
G1 X663.95 Y359.846 Z-9.497
G1 X663.971 Y359.838 Z-9.594
G1 X664.007 Y359.824 Z-9.686
G1 X664.055 Y359.805 Z-9.771
G1 X664.116 Y359.781 Z-9.847
G1 X664.186 Y359.753 Z-9.912
G1 X664.265 Y359.722 Z-9.964
G1 X664.351 Y359.689 Z-10.002
G1 X664.441 Y359.653 Z-10.025
G1 X664.534 Y359.617 Z-10.033
G1 X665.125 Y359.385 F254.
G2 X665.474 Y359.047 I-0.232 J-0.591
G2 X665.483 Y358.561 I-0.582 J-0.254
G1 X664.447 Y355.922 F508.
G1 Z-7.366
G1 X659.803 Y344.102
G1 Z-10.033
G1 X649.625 Y318.193
G2 X638.099 Y313.169 I-8.275 J3.251
G2 X633.075 Y318.193 I3.251 J8.275
G1 X622.897 Y344.102
G1 Z-7.366
G1 X618.253 Y355.922
G1 Z-10.033
G1 X608.075 Y381.831
G2 X613.1 Y393.356 I8.275 J3.25
G2 X616.35 Y393.971 I3.25 J-8.275
G1 X666.35
G2 X675.24 Y385.081 I0 J-8.89
G2 X674.625 Y381.831 I-8.89 J0
G1 X665.483 Y358.561
G3 X665.605 Y358.002 I0.48 J-0.189
G2 X665.726 Y357.443 I-0.359 J-0.371
G1 X665.038 Y355.69
G1 Z-7.366
G1 X660.394 Y343.87
G1 Z-10.033
G1 X650.216 Y317.961
G2 X637.867 Y312.578 I-8.866 J3.483
G2 X632.484 Y317.961 I3.483 J8.866
G1 X622.306 Y343.87
G1 Z-7.366
G1 X617.662 Y355.69
G1 Z-10.033
G1 X607.484 Y381.599
G2 X612.868 Y393.947 I8.866 J3.482
G2 X616.35 Y394.606 I3.482 J-8.866
G1 X666.35
G2 X675.875 Y385.081 I0 J-9.525
G2 X675.216 Y381.599 I-9.525 J0
G1 X665.726 Y357.443
G2 X664.903 Y357.084 I-0.591 J0.232 F254.
G1 X664.312 Y357.316
G1 X664.219 Y357.352 Z-10.025
G1 X664.129 Y357.388 Z-10.002
G1 X664.044 Y357.421 Z-9.964
G1 X663.964 Y357.453 Z-9.912
G1 X663.894 Y357.48 Z-9.847
G1 X663.834 Y357.504 Z-9.771
G1 X663.785 Y357.523 Z-9.686
G1 X663.75 Y357.537 Z-9.594
G1 X663.728 Y357.545 Z-9.497
G1 X663.721 Y357.548 Z-9.398
G0 Z5
G0 X663.943 Y359.849
G1 Z-2.683 F508.
G1 Z-13.081
G1 X663.95 Y359.846 Z-13.18
G1 X663.971 Y359.838 Z-13.277
G1 X664.007 Y359.824 Z-13.369
G1 X664.055 Y359.805 Z-13.454
G1 X664.116 Y359.781 Z-13.53
G1 X664.186 Y359.753 Z-13.595
G1 X664.265 Y359.722 Z-13.647
G1 X664.351 Y359.689 Z-13.685
G1 X664.441 Y359.653 Z-13.708
G1 X664.534 Y359.617 Z-13.716
G1 X665.125 Y359.385 F254.
G2 X665.474 Y359.047 I-0.232 J-0.591
G2 X665.483 Y358.561 I-0.582 J-0.254
G1 X664.447 Y355.922 F508.
G1 Z-7.366
G1 X659.803 Y344.102
G1 Z-13.716
G1 X649.625 Y318.193
G2 X638.099 Y313.169 I-8.275 J3.251
G2 X633.075 Y318.193 I3.251 J8.275
G1 X622.897 Y344.102
G1 Z-7.366
G1 X618.253 Y355.922
G1 Z-13.716
G1 X608.075 Y381.831
G2 X613.1 Y393.356 I8.275 J3.25
G2 X616.35 Y393.971 I3.25 J-8.275
G1 X666.35
G2 X675.24 Y385.081 I0 J-8.89
G2 X674.625 Y381.831 I-8.89 J0
G1 X665.483 Y358.561
G3 X665.605 Y358.002 I0.48 J-0.189
G2 X665.726 Y357.443 I-0.359 J-0.371
G1 X665.038 Y355.69
G1 Z-7.366
G1 X660.394 Y343.87
G1 Z-13.716
G1 X650.216 Y317.961
G2 X637.867 Y312.578 I-8.866 J3.483
G2 X632.484 Y317.961 I3.483 J8.866
G1 X622.306 Y343.87
G1 Z-7.366
G1 X617.662 Y355.69
G1 Z-13.716
G1 X607.484 Y381.599
G2 X612.868 Y393.947 I8.866 J3.482
G2 X616.35 Y394.606 I3.482 J-8.866
G1 X666.35
G2 X675.875 Y385.081 I0 J-9.525
G2 X675.216 Y381.599 I-9.525 J0
G1 X665.726 Y357.443
G2 X664.903 Y357.084 I-0.591 J0.232 F254.
G1 X664.312 Y357.316
G1 X664.219 Y357.352 Z-13.708
G1 X664.129 Y357.388 Z-13.685
G1 X664.044 Y357.421 Z-13.647
G1 X663.964 Y357.453 Z-13.595
G1 X663.894 Y357.48 Z-13.53
G1 X663.834 Y357.504 Z-13.454
G1 X663.785 Y357.523 Z-13.369
G1 X663.75 Y357.537 Z-13.277
G1 X663.728 Y357.545 Z-13.18
G1 X663.721 Y357.548 Z-13.081
G0 Z7.35
G0 X412.735 Y366.957
G1 Z-5.715 F508.
G1 X412.742 Y366.954 Z-5.814
G1 X412.764 Y366.946 Z-5.911
G1 X412.8 Y366.932 Z-6.003
G1 X412.848 Y366.913 Z-6.088
G1 X412.908 Y366.889 Z-6.164
G1 X412.979 Y366.862 Z-6.229
G1 X413.058 Y366.831 Z-6.281
G1 X413.144 Y366.797 Z-6.319
G1 X413.234 Y366.761 Z-6.342
G1 X413.326 Y366.725 Z-6.35
G1 X413.917 Y366.493 F254.
G2 X414.267 Y366.156 I-0.232 J-0.591
G2 X414.276 Y365.67 I-0.582 J-0.254
G1 X401.975 Y334.357 F508.
G2 X390.449 Y329.333 I-8.275 J3.251
G2 X385.425 Y334.357 I3.251 J8.275
G1 X366.033 Y383.719
G2 X371.057 Y395.244 I8.275 J3.251
G2 X374.308 Y395.86 I3.251 J-8.275
G1 X413.092
G2 X421.982 Y386.97 I0 J-8.89
G2 X421.367 Y383.719 I-8.89 J0
G1 X414.276 Y365.67
G3 X414.397 Y365.11 I0.48 J-0.189
G2 X414.519 Y364.551 I-0.359 J-0.371
G1 X402.566 Y334.125
G2 X390.217 Y328.742 I-8.866 J3.483
G2 X384.834 Y334.125 I3.483 J8.866
G1 X365.442 Y383.487
G2 X370.825 Y395.835 I8.866 J3.483
G2 X374.308 Y396.495 I3.483 J-8.866
G1 X413.092
G2 X422.617 Y386.97 I0 J-9.525
G2 X421.958 Y383.487 I-9.525 J0
G1 X414.519 Y364.551
G2 X413.696 Y364.192 I-0.591 J0.232 F254.
G1 X413.105 Y364.424
G1 X413.012 Y364.461 Z-6.342
G1 X412.922 Y364.496 Z-6.319
G1 X412.836 Y364.53 Z-6.281
G1 X412.757 Y364.561 Z-6.229
G1 X412.687 Y364.589 Z-6.164
G1 X412.626 Y364.612 Z-6.088
G1 X412.578 Y364.631 Z-6.003
G1 X412.542 Y364.645 Z-5.911
G1 X412.521 Y364.654 Z-5.814
G1 X412.514 Y364.657 Z-5.715
G0 Z5
G0 X412.735 Y366.957
G1 Z1 F508.
G1 Z-9.398
G1 X412.742 Y366.954 Z-9.497
G1 X412.764 Y366.946 Z-9.594
G1 X412.8 Y366.932 Z-9.686
G1 X412.848 Y366.913 Z-9.771
G1 X412.908 Y366.889 Z-9.847
G1 X412.979 Y366.862 Z-9.912
G1 X413.058 Y366.831 Z-9.964
G1 X413.144 Y366.797 Z-10.002
G1 X413.234 Y366.761 Z-10.025
G1 X413.326 Y366.725 Z-10.033
G1 X413.917 Y366.493 F254.
G2 X414.267 Y366.156 I-0.232 J-0.591
G2 X414.276 Y365.67 I-0.582 J-0.254
G1 X413.993 Y364.948 F508.
G1 Z-7.366
G1 X409.349 Y353.128
G1 Z-10.033
G1 X401.975 Y334.357
G2 X390.449 Y329.333 I-8.275 J3.251
G2 X385.425 Y334.357 I3.251 J8.275
G1 X378.051 Y353.128
G1 Z-7.366
G1 X373.407 Y364.948
G1 Z-10.033
G1 X366.033 Y383.719
G2 X371.057 Y395.244 I8.275 J3.251
G2 X374.308 Y395.86 I3.251 J-8.275
G1 X413.092
G2 X421.982 Y386.97 I0 J-8.89
G2 X421.367 Y383.719 I-8.89 J0
G1 X414.276 Y365.67
G3 X414.397 Y365.11 I0.48 J-0.189
G2 X414.554 Y364.728 I-0.359 J-0.371
G1 Z-7.366
G1 X414.544 Y364.638
G1 X414.519 Y364.551
G1 X409.94 Y352.896
G1 Z-10.033
G1 X402.566 Y334.125
G2 X390.217 Y328.742 I-8.866 J3.483
G2 X384.834 Y334.125 I3.483 J8.866
G1 X377.46 Y352.896
G1 Z-7.366
G1 X372.816 Y364.716
G1 Z-10.033
G1 X365.442 Y383.487
G2 X370.825 Y395.835 I8.866 J3.483
G2 X374.308 Y396.495 I3.483 J-8.866
G1 X413.092
G2 X422.617 Y386.97 I0 J-9.525
G2 X421.958 Y383.487 I-9.525 J0
G1 X414.584 Y364.716
G1 Z-7.366
G1 X414.519 Y364.551
G2 X413.696 Y364.192 I-0.591 J0.232 F254.
G1 X412.514 Y364.657
G0 Z5
G0 X412.735 Y366.957
G1 Z-2.683 F508.
G1 Z-13.081
G1 X412.742 Y366.954 Z-13.18
G1 X412.764 Y366.946 Z-13.277
G1 X412.8 Y366.932 Z-13.369
G1 X412.848 Y366.913 Z-13.454
G1 X412.908 Y366.889 Z-13.53
G1 X412.979 Y366.862 Z-13.595
G1 X413.058 Y366.831 Z-13.647
G1 X413.144 Y366.797 Z-13.685
G1 X413.234 Y366.761 Z-13.708
G1 X413.326 Y366.725 Z-13.716
G1 X413.917 Y366.493 F254.
G2 X414.267 Y366.156 I-0.232 J-0.591
G2 X414.276 Y365.67 I-0.582 J-0.254
G1 X413.993 Y364.948 F508.
G1 Z-7.366
G1 X409.349 Y353.128
G1 Z-13.716
G1 X401.975 Y334.357
G2 X390.449 Y329.333 I-8.275 J3.251
G2 X385.425 Y334.357 I3.251 J8.275
G1 X378.051 Y353.128
G1 Z-7.366
G1 X373.407 Y364.948
G1 Z-13.716
G1 X366.033 Y383.719
G2 X371.057 Y395.244 I8.275 J3.251
G2 X374.308 Y395.86 I3.251 J-8.275
G1 X413.092
G2 X421.982 Y386.97 I0 J-8.89
G2 X421.367 Y383.719 I-8.89 J0
G1 X414.276 Y365.67
G3 X414.397 Y365.11 I0.48 J-0.189
G2 X414.554 Y364.728 I-0.359 J-0.371
G1 Z-7.366
G1 X414.544 Y364.638
G1 X414.519 Y364.551
G1 X409.94 Y352.896
G1 Z-13.716
G1 X402.566 Y334.125
G2 X390.217 Y328.742 I-8.866 J3.483
G2 X384.834 Y334.125 I3.483 J8.866
G1 X377.46 Y352.896
G1 Z-7.366
G1 X372.816 Y364.716
G1 Z-13.716
G1 X365.442 Y383.487
G2 X370.825 Y395.835 I8.866 J3.483
G2 X374.308 Y396.495 I3.483 J-8.866
G1 X413.092
G2 X422.617 Y386.97 I0 J-9.525
G2 X421.958 Y383.487 I-9.525 J0
G1 X414.584 Y364.716
G1 Z-7.366
G1 X414.519 Y364.551
G2 X413.696 Y364.192 I-0.591 J0.232 F254.
G1 X412.514 Y364.657
G0 Z7.35
G0 X412.62 Y90.535
G1 Z-5.715 F508.
G1 X412.628 Y90.538 Z-5.814
G1 X412.649 Y90.546 Z-5.911
G1 X412.685 Y90.56 Z-6.003
G1 X412.733 Y90.579 Z-6.088
G1 X412.794 Y90.603 Z-6.164
G1 X412.864 Y90.63 Z-6.229
G1 X412.943 Y90.661 Z-6.281
G1 X413.029 Y90.695 Z-6.319
G1 X413.119 Y90.731 Z-6.342
G1 X413.212 Y90.767 Z-6.35
G1 X413.803 Y90.999 F254.
G2 X414.626 Y90.64 I0.232 J-0.591
G1 X423.636 Y67.706 F508.
G2 X418.612 Y56.181 I-8.275 J-3.25
G2 X415.361 Y55.565 I-3.25 J8.275
G1 X366.079
G2 X357.189 Y64.455 I0 J8.89
G2 X357.805 Y67.706 I8.89 J0
G1 X382.446 Y130.428
G2 X393.971 Y135.451 I8.274 J-3.251
G2 X398.995 Y130.428 I-3.251 J-8.274
G1 X414.626 Y90.64
G3 X415.095 Y90.313 I0.48 J0.189
G2 X415.565 Y89.986 I-0.011 J-0.516
G1 X424.227 Y67.938
G2 X418.844 Y55.59 I-8.866 J-3.483
G2 X415.361 Y54.93 I-3.483 J8.866
G1 X366.079
G2 X356.554 Y64.455 I0 J9.525
G2 X357.214 Y67.938 I9.525 J0
G1 X381.855 Y130.66
G2 X394.204 Y136.042 I8.865 J-3.483
G2 X399.586 Y130.66 I-3.483 J-8.865
G1 X415.565 Y89.986
G2 X415.556 Y89.5 I-0.591 J-0.232 F254.
G2 X415.206 Y89.163 I-0.582 J0.254
G1 X414.615 Y88.931
G1 X414.523 Y88.894 Z-6.342
G1 X414.433 Y88.859 Z-6.319
G1 X414.347 Y88.825 Z-6.281
G1 X414.268 Y88.794 Z-6.229
G1 X414.197 Y88.766 Z-6.164
G1 X414.137 Y88.743 Z-6.088
G1 X414.089 Y88.724 Z-6.003
G1 X414.053 Y88.71 Z-5.911
G1 X414.031 Y88.701 Z-5.814
G1 X414.024 Y88.698 Z-5.715
G0 Z5
G0 X412.62 Y90.535
G1 Z1 F508.
G1 Z-9.398
G1 X412.628 Y90.538 Z-9.497
G1 X412.649 Y90.546 Z-9.594
G1 X412.685 Y90.56 Z-9.686
G1 X412.733 Y90.579 Z-9.771
G1 X412.794 Y90.603 Z-9.847
G1 X412.864 Y90.63 Z-9.912
G1 X412.943 Y90.661 Z-9.964
G1 X413.029 Y90.695 Z-10.002
G1 X413.119 Y90.731 Z-10.025
G1 X413.212 Y90.767 Z-10.033
G1 X413.803 Y90.999 F254.
G2 X414.626 Y90.64 I0.232 J-0.591
G1 X423.636 Y67.706 F508.
G2 X418.612 Y56.181 I-8.275 J-3.25
G2 X415.361 Y55.565 I-3.25 J8.275
G1 X366.079
G2 X357.189 Y64.455 I0 J8.89
G2 X357.805 Y67.706 I8.89 J0
G1 X367.804 Y93.156
G1 Z-7.366
G1 X372.448 Y104.977
G1 Z-10.033
G1 X382.446 Y130.428
G2 X393.971 Y135.451 I8.274 J-3.251
G2 X398.995 Y130.428 I-3.251 J-8.274
G1 X408.993 Y104.977
G1 Z-7.366
G1 X413.637 Y93.157
G1 Z-10.033
G1 X414.626 Y90.64
G3 X415.095 Y90.313 I0.48 J0.189
G2 X415.565 Y89.986 I-0.011 J-0.516
G1 X424.227 Y67.938
G2 X418.844 Y55.59 I-8.866 J-3.483
G2 X415.361 Y54.93 I-3.483 J8.866
G1 X366.079
G2 X356.554 Y64.455 I0 J9.525
G2 X357.214 Y67.938 I9.525 J0
G1 X367.213 Y93.389
G1 Z-7.366
G1 X371.857 Y105.209
G1 Z-10.033
G1 X381.855 Y130.66
G2 X394.204 Y136.042 I8.865 J-3.483
G2 X399.586 Y130.66 I-3.483 J-8.865
G1 X409.584 Y105.209
G1 Z-7.366
G1 X414.228 Y93.389
G1 Z-10.033
G1 X415.565 Y89.986
G2 X415.556 Y89.5 I-0.591 J-0.232 F254.
G2 X415.206 Y89.163 I-0.582 J0.254
G1 X414.615 Y88.931
G1 X414.523 Y88.894 Z-10.025
G1 X414.433 Y88.859 Z-10.002
G1 X414.347 Y88.825 Z-9.964
G1 X414.268 Y88.794 Z-9.912
G1 X414.197 Y88.766 Z-9.847
G1 X414.137 Y88.743 Z-9.771
G1 X414.089 Y88.724 Z-9.686
G1 X414.053 Y88.71 Z-9.594
G1 X414.031 Y88.701 Z-9.497
G1 X414.024 Y88.698 Z-9.398
G0 Z5
G0 X412.62 Y90.535
G1 Z-2.683 F508.
G1 Z-13.081
G1 X412.628 Y90.538 Z-13.18
G1 X412.649 Y90.546 Z-13.277
G1 X412.685 Y90.56 Z-13.369
G1 X412.733 Y90.579 Z-13.454
G1 X412.794 Y90.603 Z-13.53
G1 X412.864 Y90.63 Z-13.595
G1 X412.943 Y90.661 Z-13.647
G1 X413.029 Y90.695 Z-13.685
G1 X413.119 Y90.731 Z-13.708
G1 X413.212 Y90.767 Z-13.716
G1 X413.803 Y90.999 F254.
G2 X414.626 Y90.64 I0.232 J-0.591
G1 X423.636 Y67.706 F508.
G2 X418.612 Y56.181 I-8.275 J-3.25
G2 X415.361 Y55.565 I-3.25 J8.275
G1 X366.079
G2 X357.189 Y64.455 I0 J8.89
G2 X357.805 Y67.706 I8.89 J0
G1 X367.804 Y93.156
G1 Z-7.366
G1 X372.448 Y104.977
G1 Z-13.716
G1 X382.446 Y130.428
G2 X393.971 Y135.451 I8.274 J-3.251
G2 X398.995 Y130.428 I-3.251 J-8.274
G1 X408.993 Y104.977
G1 Z-7.366
G1 X413.637 Y93.157
G1 Z-13.716
G1 X414.626 Y90.64
G3 X415.095 Y90.313 I0.48 J0.189
G2 X415.565 Y89.986 I-0.011 J-0.516
G1 X424.227 Y67.938
G2 X418.844 Y55.59 I-8.866 J-3.483
G2 X415.361 Y54.93 I-3.483 J8.866
G1 X366.079
G2 X356.554 Y64.455 I0 J9.525
G2 X357.214 Y67.938 I9.525 J0
G1 X367.213 Y93.389
G1 Z-7.366
G1 X371.857 Y105.209
G1 Z-13.716
G1 X381.855 Y130.66
G2 X394.204 Y136.042 I8.865 J-3.483
G2 X399.586 Y130.66 I-3.483 J-8.865
G1 X409.584 Y105.209
G1 Z-7.366
G1 X414.228 Y93.389
G1 Z-13.716
G1 X415.565 Y89.986
G2 X415.556 Y89.5 I-0.591 J-0.232 F254.
G2 X415.206 Y89.163 I-0.582 J0.254
G1 X414.615 Y88.931
G1 X414.523 Y88.894 Z-13.708
G1 X414.433 Y88.859 Z-13.685
G1 X414.347 Y88.825 Z-13.647
G1 X414.268 Y88.794 Z-13.595
G1 X414.197 Y88.766 Z-13.53
G1 X414.137 Y88.743 Z-13.454
G1 X414.089 Y88.724 Z-13.369
G1 X414.053 Y88.71 Z-13.277
G1 X414.031 Y88.701 Z-13.18
G1 X414.024 Y88.698 Z-13.081
G0 Z10

(2D POCKET2)
G0 Z15
G0 X-0.549 Y460.187
G0 Z10
G1 Z8.112 F254.
G1 Z-2
G1 Y460.162
G1 Y-2.963 F508.
G1 Y-2.988 F254.
G0 Z10
G0 X4.635 Y460.294
G1 Z8.112 F254.
G1 Z-2
G1 Y460.27
G1 Y-3.066 F508.
G1 Y-6.241 F254.
G0 Z10
G0 X9.824 Y460.294
G1 Z8.112 F254.
G1 Z-2
G1 X9.825 Y460.269
G1 Y0 F508.
G1 Y-3.063
G0 Z15
G0 X513.441 Y-3.091
G0 Z10
G1 Z8.112 F254.
G1 Z-2
G1 Y-3.066
G1 X513.453 Y457.2 F508.
G1 Y460.263
G1 Y463.438 F254.
G0 Z10
G0 X511.176 Y-3.094
G1 Z8.112 F254.
G1 Z-2
G1 X511.175 Y-3.069
G1 Y457.2 F508.
G1 Y460.263
G0 Z10
G0 X515.592 Y460.299
G1 Z8.112 F254.
G1 Z-2
G1 Y460.274
G1 Y-3.074 F508.
G1 Y-6.249 F254.
G0 Z10
G0 X517.824 Y460.294
G1 Z8.112 F254.
G1 Z-2
G1 X517.825 Y460.269
G1 Y0 F508.
G1 Y-3.063
G0 Z15
G0 X1156.549 Y-2.929
G0 Z10
G1 Z8.112 F254.
G1 Z-2
G1 Y-2.904
G1 Y460.098 F508.
G1 Y460.123 F254.
G0 Z10
G0 X1151.365 Y-3.098
G1 Z8.112 F254.
G1 Z-2
G1 Y-3.074
G1 Y460.274 F508.
G1 Y463.449 F254.
G0 Z10
G0 X1146.176 Y-3.094
G1 Z8.112 F254.
G1 Z-2
G1 X1146.175 Y-3.069
G1 Y457.2 F508.
G1 Y460.263
G0 Z15
G0 X767.441 Y-3.091
G0 Z10
G1 Z8.112 F254.
G1 Z-2
G1 Y-3.066
G1 X767.453 Y457.2 F508.
G1 Y460.263
G1 Y463.438 F254.
G0 Z10
G0 X765.176 Y-3.094
G1 Z8.112 F254.
G1 Z-2
G1 X765.175 Y-3.069
G1 Y457.2 F508.
G1 Y460.263
G0 Z10
G0 X769.592 Y460.299
G1 Z8.112 F254.
G1 Z-2
G1 Y460.274
G1 Y-3.074 F508.
G1 Y-6.249 F254.
G0 Z10
G0 X771.824 Y460.294
G1 Z8.112 F254.
G1 Z-2
G1 X771.825 Y460.269
G1 Y0 F508.
G1 Y-3.063
G0 Z15
G0 X132.441 Y-3.091
G0 Z10
G1 Z8.112 F254.
G1 Z-2
G1 Y-3.066
G1 X132.453 Y457.2 F508.
G1 Y460.263
G1 Y463.438 F254.
G0 Z10
G0 X130.176 Y-3.094
G1 Z8.112 F254.
G1 Z-2
G1 X130.175 Y-3.069
G1 Y457.2 F508.
G1 Y460.263
G0 Z10
G0 X134.592 Y460.299
G1 Z8.112 F254.
G1 Z-2
G1 Y460.274
G1 Y-3.074 F508.
G1 Y-6.249 F254.
G0 Z10
G0 X136.824 Y460.294
G1 Z8.112 F254.
G1 Z-2
G1 X136.825 Y460.269
G1 Y0 F508.
G1 Y-3.063
G0 Z15
G0 X259.408 Y-3.099
G0 Z10
G1 Z8.112 F254.
G1 Z-2
G1 Y-3.074
G1 Y460.274 F508.
G1 Y463.449 F254.
G0 Z10
G0 X257.176 Y-3.094
G1 Z8.112 F254.
G1 Z-2
G1 X257.175 Y-3.069
G1 Y457.2 F508.
G1 Y460.263
G0 Z10
G0 X261.592 Y460.299
G1 Z8.112 F254.
G1 Z-2
G1 Y460.274
G1 Y-3.074 F508.
G1 Y-6.249 F254.
G0 Z10
G0 X263.824 Y460.294
G1 Z8.112 F254.
G1 Z-2
G1 X263.825 Y460.269
G1 Y0 F508.
G1 Y-3.063
G0 Z15

(2D CONTOUR6)
G0 X139.365 Y-5.715
G0 Z10
G0 Z7.35
G1 Z-5.715 F508.
G1 Y-5.707 Z-5.814
G1 Y-5.684 Z-5.911
G1 Y-5.646 Z-6.003
G1 Y-5.594 Z-6.088
G1 Y-5.529 Z-6.164
G1 Y-5.453 Z-6.229
G1 Y-5.368 Z-6.281
G1 Y-5.276 Z-6.319
G1 Y-5.179 Z-6.342
G1 Y-5.08 Z-6.35
G1 Y-4.445 F254.
G2 X140 Y-3.81 I0.635 J0
G1 X254 F508.
G1 X1143
G1 X1155.7
G3 X1159.51 Y0 I0 J3.81
G1 Y457.2
G3 X1155.7 Y461.01 I-3.81 J0
G1 X0
G3 X-3.81 Y457.2 I0 J-3.81
G1 Y0
G3 X0 Y-3.81 I3.81 J0
G1 X13
G2 X13.635 Y-4.445 I0 J-0.635 F254.
G1 Y-5.08
G1 Y-5.179 Z-6.342
G1 Y-5.276 Z-6.319
G1 Y-5.368 Z-6.281
G1 Y-5.453 Z-6.229
G1 Y-5.529 Z-6.164
G1 Y-5.594 Z-6.088
G1 Y-5.646 Z-6.003
G1 Y-5.684 Z-5.911
G1 Y-5.707 Z-5.814
G1 Y-5.715 Z-5.715
G0 Z7.35
G0 X12.365
G1 Z-5.715 F508.
G1 Y-5.707 Z-5.814
G1 Y-5.684 Z-5.911
G1 Y-5.646 Z-6.003
G1 Y-5.594 Z-6.088
G1 Y-5.529 Z-6.164
G1 Y-5.453 Z-6.229
G1 Y-5.368 Z-6.281
G1 Y-5.276 Z-6.319
G1 Y-5.179 Z-6.342
G1 Y-5.08 Z-6.35
G1 Y-4.445 F254.
G2 X13 Y-3.81 I0.635 J0
G1 X127 F508.
G1 X140
G2 X140.635 Y-4.445 I0 J-0.635 F254.
G1 Y-5.08
G1 Y-5.179 Z-6.342
G1 Y-5.276 Z-6.319
G1 Y-5.368 Z-6.281
G1 Y-5.453 Z-6.229
G1 Y-5.529 Z-6.164
G1 Y-5.594 Z-6.088
G1 Y-5.646 Z-6.003
G1 Y-5.684 Z-5.911
G1 Y-5.707 Z-5.814
G1 Y-5.715 Z-5.715
G0 Z7.35
G0 X139.365 Y-5.08
G1 Z-5.715 F508.
G1 Y-5.072 Z-5.814
G1 Y-5.049 Z-5.911
G1 Y-5.011 Z-6.003
G1 Y-4.959 Z-6.088
G1 Y-4.894 Z-6.164
G1 Y-4.818 Z-6.229
G1 Y-4.733 Z-6.281
G1 Y-4.641 Z-6.319
G1 Y-4.544 Z-6.342
G1 Y-4.445 Z-6.35
G1 Y-3.81 F254.
G2 X140 Y-3.175 I0.635 J0
G1 X254 F508.
G1 X1143
G1 X1155.7
G3 X1158.875 Y0 I0 J3.175
G1 Y457.2
G3 X1155.7 Y460.375 I-3.175 J0
G1 X0
G3 X-3.175 Y457.2 I0 J-3.175
G1 Y0
G3 X0 Y-3.175 I3.175 J0
G1 X13
G2 X13.635 Y-3.81 I0 J-0.635 F254.
G1 Y-4.445
G1 Y-4.544 Z-6.342
G1 Y-4.641 Z-6.319
G1 Y-4.733 Z-6.281
G1 Y-4.818 Z-6.229
G1 Y-4.894 Z-6.164
G1 Y-4.959 Z-6.088
G1 Y-5.011 Z-6.003
G1 Y-5.049 Z-5.911
G1 Y-5.072 Z-5.814
G1 Y-5.08 Z-5.715
G0 Z7.35
G0 X12.365
G1 Z-5.715 F508.
G1 Y-5.072 Z-5.814
G1 Y-5.049 Z-5.911
G1 Y-5.011 Z-6.003
G1 Y-4.959 Z-6.088
G1 Y-4.894 Z-6.164
G1 Y-4.818 Z-6.229
G1 Y-4.733 Z-6.281
G1 Y-4.641 Z-6.319
G1 Y-4.544 Z-6.342
G1 Y-4.445 Z-6.35
G1 Y-3.81 F254.
G2 X13 Y-3.175 I0.635 J0
G1 X127 F508.
G1 X140
G2 X140.635 Y-3.81 I0 J-0.635 F254.
G1 Y-4.445
G1 Y-4.544 Z-6.342
G1 Y-4.641 Z-6.319
G1 Y-4.733 Z-6.281
G1 Y-4.818 Z-6.229
G1 Y-4.894 Z-6.164
G1 Y-4.959 Z-6.088
G1 Y-5.011 Z-6.003
G1 Y-5.049 Z-5.911
G1 Y-5.072 Z-5.814
G1 Y-5.08 Z-5.715
G0 Z5
G0 X139.365 Y-5.715
G1 Z1 F508.
G1 Z-9.398
G1 Y-5.707 Z-9.497
G1 Y-5.684 Z-9.594
G1 Y-5.646 Z-9.686
G1 Y-5.594 Z-9.771
G1 Y-5.529 Z-9.847
G1 Y-5.453 Z-9.912
G1 Y-5.368 Z-9.964
G1 Y-5.276 Z-10.002
G1 Y-5.179 Z-10.025
G1 Y-5.08 Z-10.033
G1 Y-4.445 F254.
G2 X140 Y-3.81 I0.635 J0
G1 X190.65 F508.
G1 Z-7.366
G1 X203.35
G1 Z-10.033
G1 X320.9
G1 Z-7.366
G1 X333.6
G1 Z-10.033
G1 X441.4
G1 Z-7.366
G1 X454.1
G1 Z-10.033
G1 X574.9
G1 Z-7.366
G1 X587.6
G1 Z-10.033
G1 X695.4
G1 Z-7.366
G1 X708.1
G1 Z-10.033
G1 X814.65
G1 Z-7.366
G1 X827.35
G1 Z-10.033
G1 X906.65
G1 Z-7.366
G1 X919.35
G1 Z-10.033
G1 X998.65
G1 Z-7.366
G1 X1011.35
G1 Z-10.033
G1 X1090.65
G1 Z-7.366
G1 X1103.35
G1 Z-10.033
G1 X1155.7
G3 X1159.51 Y0 I0 J3.81
G1 Y39.37
G1 Z-7.366
G1 Y52.07
G1 Z-10.033
G1 Y130.81
G1 Z-7.366
G1 Y143.51
G1 Z-10.033
G1 Y222.25
G1 Z-7.366
G1 Y234.95
G1 Z-10.033
G1 Y313.69
G1 Z-7.366
G1 Y326.39
G1 Z-10.033
G1 Y405.13
G1 Z-7.366
G1 Y417.83
G1 Z-10.033
G1 Y457.2
G3 X1155.7 Y461.01 I-3.81 J0
G1 X1103.35
G1 Z-7.366
G1 X1090.65
G1 Z-10.033
G1 X1011.35
G1 Z-7.366
G1 X998.65
G1 Z-10.033
G1 X919.35
G1 Z-7.366
G1 X906.65
G1 Z-10.033
G1 X827.35
G1 Z-7.366
G1 X814.65
G1 Z-10.033
G1 X708.1
G1 Z-7.366
G1 X695.4
G1 Z-10.033
G1 X587.6
G1 Z-7.366
G1 X574.9
G1 Z-10.033
G1 X454.1
G1 Z-7.366
G1 X441.4
G1 Z-10.033
G1 X333.6
G1 Z-7.366
G1 X320.9
G1 Z-10.033
G1 X203.35
G1 Z-7.366
G1 X190.65
G1 Z-10.033
G1 X76.35
G1 Z-7.366
G1 X63.65
G1 Z-10.033
G1 X0
G3 X-3.81 Y457.2 I0 J-3.81
G1 Y417.83
G1 Z-7.366
G1 Y405.13
G1 Z-10.033
G1 Y326.39
G1 Z-7.366
G1 Y313.69
G1 Z-10.033
G1 Y234.95
G1 Z-7.366
G1 Y222.25
G1 Z-10.033
G1 Y143.51
G1 Z-7.366
G1 Y130.81
G1 Z-10.033
G1 Y52.07
G1 Z-7.366
G1 Y39.37
G1 Z-10.033
G1 Y0
G3 X0 Y-3.81 I3.81 J0
G1 X13
G2 X13.635 Y-4.445 I0 J-0.635 F254.
G1 Y-5.08
G1 Y-5.179 Z-10.025
G1 Y-5.276 Z-10.002
G1 Y-5.368 Z-9.964
G1 Y-5.453 Z-9.912
G1 Y-5.529 Z-9.847
G1 Y-5.594 Z-9.771
G1 Y-5.646 Z-9.686
G1 Y-5.684 Z-9.594
G1 Y-5.707 Z-9.497
G1 Y-5.715 Z-9.398
G0 Z5
G0 X12.365
G1 Z1 F508.
G1 Z-9.398
G1 Y-5.707 Z-9.497
G1 Y-5.684 Z-9.594
G1 Y-5.646 Z-9.686
G1 Y-5.594 Z-9.771
G1 Y-5.529 Z-9.847
G1 Y-5.453 Z-9.912
G1 Y-5.368 Z-9.964
G1 Y-5.276 Z-10.002
G1 Y-5.179 Z-10.025
G1 Y-5.08 Z-10.033
G1 Y-4.445 F254.
G2 X13 Y-3.81 I0.635 J0
G1 X63.65 F508.
G1 Z-7.366
G1 X76.35
G1 Z-10.033
G1 X140
G2 X140.635 Y-4.445 I0 J-0.635 F254.
G1 Y-5.08
G1 Y-5.179 Z-10.025
G1 Y-5.276 Z-10.002
G1 Y-5.368 Z-9.964
G1 Y-5.453 Z-9.912
G1 Y-5.529 Z-9.847
G1 Y-5.594 Z-9.771
G1 Y-5.646 Z-9.686
G1 Y-5.684 Z-9.594
G1 Y-5.707 Z-9.497
G1 Y-5.715 Z-9.398
G0 Z5
G0 X139.365 Y-5.08
G1 Z1 F508.
G1 Z-9.398
G1 Y-5.072 Z-9.497
G1 Y-5.049 Z-9.594
G1 Y-5.011 Z-9.686
G1 Y-4.959 Z-9.771
G1 Y-4.894 Z-9.847
G1 Y-4.818 Z-9.912
G1 Y-4.733 Z-9.964
G1 Y-4.641 Z-10.002
G1 Y-4.544 Z-10.025
G1 Y-4.445 Z-10.033
G1 Y-3.81 F254.
G2 X140 Y-3.175 I0.635 J0
G1 X190.65 F508.
G1 Z-7.366
G1 X203.35
G1 Z-10.033
G1 X320.9
G1 Z-7.366
G1 X333.6
G1 Z-10.033
G1 X441.4
G1 Z-7.366
G1 X454.1
G1 Z-10.033
G1 X574.9
G1 Z-7.366
G1 X587.6
G1 Z-10.033
G1 X695.4
G1 Z-7.366
G1 X708.1
G1 Z-10.033
G1 X814.65
G1 Z-7.366
G1 X827.35
G1 Z-10.033
G1 X906.65
G1 Z-7.366
G1 X919.35
G1 Z-10.033
G1 X998.65
G1 Z-7.366
G1 X1011.35
G1 Z-10.033
G1 X1090.65
G1 Z-7.366
G1 X1103.35
G1 Z-10.033
G1 X1155.7
G3 X1158.875 Y0 I0 J3.175
G1 Y39.37
G1 Z-7.366
G1 Y52.07
G1 Z-10.033
G1 Y130.81
G1 Z-7.366
G1 Y143.51
G1 Z-10.033
G1 Y222.25
G1 Z-7.366
G1 Y234.95
G1 Z-10.033
G1 Y313.69
G1 Z-7.366
G1 Y326.39
G1 Z-10.033
G1 Y405.13
G1 Z-7.366
G1 Y417.83
G1 Z-10.033
G1 Y457.2
G3 X1155.7 Y460.375 I-3.175 J0
G1 X1103.35
G1 Z-7.366
G1 X1090.65
G1 Z-10.033
G1 X1011.35
G1 Z-7.366
G1 X998.65
G1 Z-10.033
G1 X919.35
G1 Z-7.366
G1 X906.65
G1 Z-10.033
G1 X827.35
G1 Z-7.366
G1 X814.65
G1 Z-10.033
G1 X708.1
G1 Z-7.366
G1 X695.4
G1 Z-10.033
G1 X587.6
G1 Z-7.366
G1 X574.9
G1 Z-10.033
G1 X454.1
G1 Z-7.366
G1 X441.4
G1 Z-10.033
G1 X333.6
G1 Z-7.366
G1 X320.9
G1 Z-10.033
G1 X203.35
G1 Z-7.366
G1 X190.65
G1 Z-10.033
G1 X76.35
G1 Z-7.366
G1 X63.65
G1 Z-10.033
G1 X0
G3 X-3.175 Y457.2 I0 J-3.175
G1 Y417.83
G1 Z-7.366
G1 Y405.13
G1 Z-10.033
G1 Y326.39
G1 Z-7.366
G1 Y313.69
G1 Z-10.033
G1 Y234.95
G1 Z-7.366
G1 Y222.25
G1 Z-10.033
G1 Y143.51
G1 Z-7.366
G1 Y130.81
G1 Z-10.033
G1 Y52.07
G1 Z-7.366
G1 Y39.37
G1 Z-10.033
G1 Y0
G3 X0 Y-3.175 I3.175 J0
G1 X13
G2 X13.635 Y-3.81 I0 J-0.635 F254.
G1 Y-4.445
G1 Y-4.544 Z-10.025
G1 Y-4.641 Z-10.002
G1 Y-4.733 Z-9.964
G1 Y-4.818 Z-9.912
G1 Y-4.894 Z-9.847
G1 Y-4.959 Z-9.771
G1 Y-5.011 Z-9.686
G1 Y-5.049 Z-9.594
G1 Y-5.072 Z-9.497
G1 Y-5.08 Z-9.398
G0 Z5
G0 X12.365
G1 Z1 F508.
G1 Z-9.398
G1 Y-5.072 Z-9.497
G1 Y-5.049 Z-9.594
G1 Y-5.011 Z-9.686
G1 Y-4.959 Z-9.771
G1 Y-4.894 Z-9.847
G1 Y-4.818 Z-9.912
G1 Y-4.733 Z-9.964
G1 Y-4.641 Z-10.002
G1 Y-4.544 Z-10.025
G1 Y-4.445 Z-10.033
G1 Y-3.81 F254.
G2 X13 Y-3.175 I0.635 J0
G1 X63.65 F508.
G1 Z-7.366
G1 X76.35
G1 Z-10.033
G1 X140
G2 X140.635 Y-3.81 I0 J-0.635 F254.
G1 Y-4.445
G1 Y-4.544 Z-10.025
G1 Y-4.641 Z-10.002
G1 Y-4.733 Z-9.964
G1 Y-4.818 Z-9.912
G1 Y-4.894 Z-9.847
G1 Y-4.959 Z-9.771
G1 Y-5.011 Z-9.686
G1 Y-5.049 Z-9.594
G1 Y-5.072 Z-9.497
G1 Y-5.08 Z-9.398
G0 Z5
G0 X139.365 Y-5.715
G1 Z-2.683 F508.
G1 Z-13.081
G1 Y-5.707 Z-13.18
G1 Y-5.684 Z-13.277
G1 Y-5.646 Z-13.369
G1 Y-5.594 Z-13.454
G1 Y-5.529 Z-13.53
G1 Y-5.453 Z-13.595
G1 Y-5.368 Z-13.647
G1 Y-5.276 Z-13.685
G1 Y-5.179 Z-13.708
G1 Y-5.08 Z-13.716
G1 Y-4.445 F254.
G2 X140 Y-3.81 I0.635 J0
G1 X190.65 F508.
G1 Z-7.366
G1 X203.35
G1 Z-13.716
G1 X320.9
G1 Z-7.366
G1 X333.6
G1 Z-13.716
G1 X441.4
G1 Z-7.366
G1 X454.1
G1 Z-13.716
G1 X574.9
G1 Z-7.366
G1 X587.6
G1 Z-13.716
G1 X695.4
G1 Z-7.366
G1 X708.1
G1 Z-13.716
G1 X814.65
G1 Z-7.366
G1 X827.35
G1 Z-13.716
G1 X906.65
G1 Z-7.366
G1 X919.35
G1 Z-13.716
G1 X998.65
G1 Z-7.366
G1 X1011.35
G1 Z-13.716
G1 X1090.65
G1 Z-7.366
G1 X1103.35
G1 Z-13.716
G1 X1155.7
G3 X1159.51 Y0 I0 J3.81
G1 Y39.37
G1 Z-7.366
G1 Y52.07
G1 Z-13.716
G1 Y130.81
G1 Z-7.366
G1 Y143.51
G1 Z-13.716
G1 Y222.25
G1 Z-7.366
G1 Y234.95
G1 Z-13.716
G1 Y313.69
G1 Z-7.366
G1 Y326.39
G1 Z-13.716
G1 Y405.13
G1 Z-7.366
G1 Y417.83
G1 Z-13.716
G1 Y457.2
G3 X1155.7 Y461.01 I-3.81 J0
G1 X1103.35
G1 Z-7.366
G1 X1090.65
G1 Z-13.716
G1 X1011.35
G1 Z-7.366
G1 X998.65
G1 Z-13.716
G1 X919.35
G1 Z-7.366
G1 X906.65
G1 Z-13.716
G1 X827.35
G1 Z-7.366
G1 X814.65
G1 Z-13.716
G1 X708.1
G1 Z-7.366
G1 X695.4
G1 Z-13.716
G1 X587.6
G1 Z-7.366
G1 X574.9
G1 Z-13.716
G1 X454.1
G1 Z-7.366
G1 X441.4
G1 Z-13.716
G1 X333.6
G1 Z-7.366
G1 X320.9
G1 Z-13.716
G1 X203.35
G1 Z-7.366
G1 X190.65
G1 Z-13.716
G1 X76.35
G1 Z-7.366
G1 X63.65
G1 Z-13.716
G1 X0
G3 X-3.81 Y457.2 I0 J-3.81
G1 Y417.83
G1 Z-7.366
G1 Y405.13
G1 Z-13.716
G1 Y326.39
G1 Z-7.366
G1 Y313.69
G1 Z-13.716
G1 Y234.95
G1 Z-7.366
G1 Y222.25
G1 Z-13.716
G1 Y143.51
G1 Z-7.366
G1 Y130.81
G1 Z-13.716
G1 Y52.07
G1 Z-7.366
G1 Y39.37
G1 Z-13.716
G1 Y0
G3 X0 Y-3.81 I3.81 J0
G1 X13
G2 X13.635 Y-4.445 I0 J-0.635 F254.
G1 Y-5.08
G1 Y-5.179 Z-13.708
G1 Y-5.276 Z-13.685
G1 Y-5.368 Z-13.647
G1 Y-5.453 Z-13.595
G1 Y-5.529 Z-13.53
G1 Y-5.594 Z-13.454
G1 Y-5.646 Z-13.369
G1 Y-5.684 Z-13.277
G1 Y-5.707 Z-13.18
G1 Y-5.715 Z-13.081
G0 Z5
G0 X12.365
G1 Z-2.683 F508.
G1 Z-13.081
G1 Y-5.707 Z-13.18
G1 Y-5.684 Z-13.277
G1 Y-5.646 Z-13.369
G1 Y-5.594 Z-13.454
G1 Y-5.529 Z-13.53
G1 Y-5.453 Z-13.595
G1 Y-5.368 Z-13.647
G1 Y-5.276 Z-13.685
G1 Y-5.179 Z-13.708
G1 Y-5.08 Z-13.716
G1 Y-4.445 F254.
G2 X13 Y-3.81 I0.635 J0
G1 X63.65 F508.
G1 Z-7.366
G1 X76.35
G1 Z-13.716
G1 X140
G2 X140.635 Y-4.445 I0 J-0.635 F254.
G1 Y-5.08
G1 Y-5.179 Z-13.708
G1 Y-5.276 Z-13.685
G1 Y-5.368 Z-13.647
G1 Y-5.453 Z-13.595
G1 Y-5.529 Z-13.53
G1 Y-5.594 Z-13.454
G1 Y-5.646 Z-13.369
G1 Y-5.684 Z-13.277
G1 Y-5.707 Z-13.18
G1 Y-5.715 Z-13.081
G0 Z5
G0 X139.365 Y-5.08
G1 Z-2.683 F508.
G1 Z-13.081
G1 Y-5.072 Z-13.18
G1 Y-5.049 Z-13.277
G1 Y-5.011 Z-13.369
G1 Y-4.959 Z-13.454
G1 Y-4.894 Z-13.53
G1 Y-4.818 Z-13.595
G1 Y-4.733 Z-13.647
G1 Y-4.641 Z-13.685
G1 Y-4.544 Z-13.708
G1 Y-4.445 Z-13.716
G1 Y-3.81 F254.
G2 X140 Y-3.175 I0.635 J0
G1 X190.65 F508.
G1 Z-7.366
G1 X203.35
G1 Z-13.716
G1 X320.9
G1 Z-7.366
G1 X333.6
G1 Z-13.716
G1 X441.4
G1 Z-7.366
G1 X454.1
G1 Z-13.716
G1 X574.9
G1 Z-7.366
G1 X587.6
G1 Z-13.716
G1 X695.4
G1 Z-7.366
G1 X708.1
G1 Z-13.716
G1 X814.65
G1 Z-7.366
G1 X827.35
G1 Z-13.716
G1 X906.65
G1 Z-7.366
G1 X919.35
G1 Z-13.716
G1 X998.65
G1 Z-7.366
G1 X1011.35
G1 Z-13.716
G1 X1090.65
G1 Z-7.366
G1 X1103.35
G1 Z-13.716
G1 X1155.7
G3 X1158.875 Y0 I0 J3.175
G1 Y39.37
G1 Z-7.366
G1 Y52.07
G1 Z-13.716
G1 Y130.81
G1 Z-7.366
G1 Y143.51
G1 Z-13.716
G1 Y222.25
G1 Z-7.366
G1 Y234.95
G1 Z-13.716
G1 Y313.69
G1 Z-7.366
G1 Y326.39
G1 Z-13.716
G1 Y405.13
G1 Z-7.366
G1 Y417.83
G1 Z-13.716
G1 Y457.2
G3 X1155.7 Y460.375 I-3.175 J0
G1 X1103.35
G1 Z-7.366
G1 X1090.65
G1 Z-13.716
G1 X1011.35
G1 Z-7.366
G1 X998.65
G1 Z-13.716
G1 X919.35
G1 Z-7.366
G1 X906.65
G1 Z-13.716
G1 X827.35
G1 Z-7.366
G1 X814.65
G1 Z-13.716
G1 X708.1
G1 Z-7.366
G1 X695.4
G1 Z-13.716
G1 X587.6
G1 Z-7.366
G1 X574.9
G1 Z-13.716
G1 X454.1
G1 Z-7.366
G1 X441.4
G1 Z-13.716
G1 X333.6
G1 Z-7.366
G1 X320.9
G1 Z-13.716
G1 X203.35
G1 Z-7.366
G1 X190.65
G1 Z-13.716
G1 X76.35
G1 Z-7.366
G1 X63.65
G1 Z-13.716
G1 X0
G3 X-3.175 Y457.2 I0 J-3.175
G1 Y417.83
G1 Z-7.366
G1 Y405.13
G1 Z-13.716
G1 Y326.39
G1 Z-7.366
G1 Y313.69
G1 Z-13.716
G1 Y234.95
G1 Z-7.366
G1 Y222.25
G1 Z-13.716
G1 Y143.51
G1 Z-7.366
G1 Y130.81
G1 Z-13.716
G1 Y52.07
G1 Z-7.366
G1 Y39.37
G1 Z-13.716
G1 Y0
G3 X0 Y-3.175 I3.175 J0
G1 X13
G2 X13.635 Y-3.81 I0 J-0.635 F254.
G1 Y-4.445
G1 Y-4.544 Z-13.708
G1 Y-4.641 Z-13.685
G1 Y-4.733 Z-13.647
G1 Y-4.818 Z-13.595
G1 Y-4.894 Z-13.53
G1 Y-4.959 Z-13.454
G1 Y-5.011 Z-13.369
G1 Y-5.049 Z-13.277
G1 Y-5.072 Z-13.18
G1 Y-5.08 Z-13.081
G0 Z5
G0 X12.365
G1 Z-2.683 F508.
G1 Z-13.081
G1 Y-5.072 Z-13.18
G1 Y-5.049 Z-13.277
G1 Y-5.011 Z-13.369
G1 Y-4.959 Z-13.454
G1 Y-4.894 Z-13.53
G1 Y-4.818 Z-13.595
G1 Y-4.733 Z-13.647
G1 Y-4.641 Z-13.685
G1 Y-4.544 Z-13.708
G1 Y-4.445 Z-13.716
G1 Y-3.81 F254.
G2 X13 Y-3.175 I0.635 J0
G1 X63.65 F508.
G1 Z-7.366
G1 X76.35
G1 Z-13.716
G1 X140
G2 X140.635 Y-3.81 I0 J-0.635 F254.
G1 Y-4.445
G1 Y-4.544 Z-13.708
G1 Y-4.641 Z-13.685
G1 Y-4.733 Z-13.647
G1 Y-4.818 Z-13.595
G1 Y-4.894 Z-13.53
G1 Y-4.959 Z-13.454
G1 Y-5.011 Z-13.369
G1 Y-5.049 Z-13.277
G1 Y-5.072 Z-13.18
G1 Y-5.08 Z-13.081
G0 Z10

G0 Z15
M5
M30
